signifying
salient
inefficient
times
helix
analyze
consumption
injecting
update
kanter
injection
discrepancy
muon
vaps
analyse
helps
aliasing
analyte
munk
risto
pervasive
mume
potter
subband
warren
glanz
stochastic
invested
outperforms
musk
vary
vari
walking
vast
helped
soukup
culture
scalar
automation
verbal
marroquin
unavoidable
chorale
convolutions
interfere
raymond
glass
weights
concentric
non-parametric
spiking
discovers
subfamily
timothy
discovery
flashed
voicing
weighed
script
conjunctive
organization
tiles
halted
alignments
combine
stripes
exceeded
follower
striped
guessing
automatica
gather
controlled
coexistence
relative
controller
conjunction
investor
coenen
generator
treated
2a
35
1t
36
33
34
39
37
38
1v
2m
2l
2k
2j
43
42
2p
2o
41
40
2n
2e
2d
2c
2b
2i
2h
2g
2f
0x
22
organized
23
24
25
0s
26
27
28
29
1k
1n
30
32
31
1a
1d
1c
1f
19
17
18
15
16
13
14
11
12
21
20
0e
08
09
04
05
06
07
00
01
02
03
10
plots
relating
5w
79
78
5v
77
6a
6d
6c
6b
82
83
80
81
86
87
cpgs
84
85
67
4t
66
69
68
4x
generates
tages
relation
5b
5a
5d
5c
5e
properly
5k
generated
70
71
72
73
5r
74
5s
75
5t
76
59
58
3v
57
3t
56
55
4c
4b
4a
4k
4d
4e
64
65
62
63
4n
60
61
4m
49
2w
2v
48
2x
crucial
45
2s
44
2r
47
2t
46
3b
3a
2z
3g
3i
3j
3c
3d
3e
3f
51
52
53
54
3m
3n
50
9a
memberships
8i
8e
8a
8b
99
98
97
96
95
94
7r
93
92
7p
91
90
7g
7c
7a
7b
88
89
implication
property
marion
locally
modulations
newton-raphson
interactively
systematic
sander
rival
circuits
increments
monitor
pre-attentive
disparate
compactness
neuromuscular
govern
hierarchy
christian
sacrificing
agreement
francisco
optimizing
subroutine
nontrivial
messages
coarser
depending
optimise
equalization
calibrate
economy
optimize
collector
sounds
formation
regret
csrf
initiate
a0
a1
a2
a3
a4
a5
a7
metrical
river
fz
fv
fw
fx
fy
gc
gd
ge
gf
ga
gb
fk
fj
fm
references
fl
fg
ff
fi
fh
fs
fr
fu
ft
fo
h1
fn
h0
fq
h3
fp
h2
gy
gz
gx
hf
hg
hd
hb
hc
ha
i0
gn
gm
gl
gk
gj
gi
gh
gg
gv
gu
binding
gt
i5
gs
gr
i4
gq
i3
i2
gp
i1
dt
du
dv
dw
dx
dy
dz
ea
eb
ec
ed
de
dd
dg
df
di
dh
dk
dj
dm
dl
f1
f0
dn
dq
f3
f2
dp
prevented
ds
dr
f4
ew
eu
g7
ev
ey
ez
fa
connolly
fd
fe
fb
fc
eh
ef
ee
hyperplane
el
ek
ej
ei
ep
g2
g1
eo
g0
en
em
es
er
eq
cb
ca
bw
bx
bs
br
bu
bt
bn
d0
bo
d1
d2
bp
d3
bq
bj
bk
bayesian
bl
bm
bf
time-consuming
bh
bi
bc
bd
dc
db
da
templates
cz
cy
cx
cw
cv
cu
e7
e6
ct
cs
e5
e3
decided
cq
cr
e4
e1
e2
cp
cm
cn
e0
ck
cl
ci
cj
cg
ch
ce
cf
cc
cd
unbalanced
b3
b2
b4
lighter
institutes
b0
b1
cray
az
ay
ba
cram
lynch
ar
c4
c3
aq
ax
c9
aw
referenced
av
crab
au
ak
al
ai
aj
c1
ao
c2
ap
c0
ac
ad
aa
ab
ag
ah
ae
af
nu
nt
p5
ns
nr
p4
p3
p2
np
p1
nn
p0
nz
ny
nx
nw
halves
nv
oe
oc
od
oa
ob
om
q0
ol
oi
oj
og
ot
os
q5
ov
ou
q2
op
q1
oo
q4
oq
q3
ox
ow
oz
oy
pd
pe
pf
pg
pa
pb
pc
pl
pm
r0
pn
r1
po
ph
accumulate
pi
pj
epsps
pk
n1
lo
ln
n0
lm
ll
ls
lr
n4
lq
n3
lp
n2
crew
lw
lv
lu
epsrc
lt
n6
lz
ly
lx
mc
md
ma
mb
mg
mh
mf
mk
ml
mi
mj
mn
mm
mp
o2
o1
mo
o4
mr
o3
mq
mt
collected
o6
ms
o5
mv
mu
mx
mw
na
nb
nc
ne
nf
ng
nh
ni
nj
nk
nl
nm
jx
jy
jv
jt
ju
jr
js
l2
jp
jq
jn
l0
jo
l1
jl
jm
fatigue
jj
variations
jk
kj
ki
kg
kf
ke
kd
kb
ka
contexts
jz
kw
kx
ky
kz
m5
ks
kt
kv
ko
m1
kp
m2
m3
m4
kr
kk
kl
km
m0
kn
li
lh
lk
lj
le
ld
lg
lf
lightly
la
lc
lb
hr
j4
hs
j2
hp
hv
ht
hu
hj
hk
hh
hn
ho
hl
hm
id
ic
ib
ia
ih
ig
hz
hy
hx
iq
k3
ir
iu
iv
iw
ix
ii
ij
ik
il
k0
k1
io
ip
k2
jc
jb
je
jd
jg
jf
crit
ji
jh
iz
iy
ja
xj
xk
xh
xi
xn
z0
z1
xo
xl
xm
xr
xs
xp
z2
z3
xv
xw
xt
xu
wz
wy
wx
ww
measurable
xc
xb
xa
xg
xf
xe
xd
wh
wi
wj
wk
wl
wm
wn
y0
y1
addison-wesley
wo
wp
y2
wq
y3
wr
ws
wt
wu
wv
x9
vw
vv
vy
vx
vz
wb
wa
wd
wc
wf
vl
vm
vj
vk
vh
vi
vf
vg
x6
vt
x7
vu
vr
x4
x5
vp
x2
x3
vq
x0
vn
x1
vo
uy
ux
uv
uu
ve
vd
vc
vb
va
econometrics
ui
uj
uk
ul
ue
uf
uq
ur
front
ut
w6
um
w1
uo
w2
ty
tx
wards
tz
tu
v6
tt
tw
tv
ua
uc
v1
tn
v0
tm
tl
v5
ts
tr
v4
v3
tq
v2
tp
tg
tf
te
td
tk
tj
ti
tb
tc
ta
su
sv
ss
st
sy
sz
sw
sx
sl
antecedent
sk
sn
sm
u2
sp
u1
u4
sr
u3
sq
disjoint
sd
sc
sf
se
sh
sg
sj
si
rz
sa
sb
rr
t4
rs
t5
rt
t6
t7
ru
rv
t9
rw
rx
ry
rq
t3
t2
rp
t1
ro
acknowledge
t0
rn
rm
rl
testbed
rk
rj
ri
rh
strings
rg
rf
rc
rb
ra
qz
qw
qx
qu
qs
s5
qt
qq
s3
s4
qr
qn
s0
qm
qp
s2
qo
s1
qj
martinez
qi
ql
qk
qf
qe
qh
qg
qb
qa
qc
px
py
vasconcelos
pz
pt
pu
r7
pv
pw
pp
r2
pq
r3
r4
pr
ps
jacobian
margin
reconstructs
crus
qualitative
engage
cruz
decides
determination
yielded
zz
zf
zh
zi
zc
zd
ze
za
yy
yz
zy
zx
zs
zr
zu
zt
zo
zn
zp
zk
zj
zm
zl
yg
ye
yf
yc
ya
xz
xx
xy
yx
yv
yu
yt
ys
yr
yp
yo
yn
ym
yl
yk
yj
yi
precludes
correlational
misclassification
restored
christoph
clus
waveforms
tokens
horiuchi
manipulators
sending
clue
muller
on/off
interface
clocking
topography
workstations
cmos
likelihood
furnace
extracting
winther
extraction
shrinkage
question
ensuing
represented
saving
asymptotes
conjunctions
proportional
cmac
surpass
accompanied
arises
clever
cut-off
rewriting
efficacy
asymptotic
variate
screen
novelty
tiple
traffic
variant
interprets
walks
crucially
walls
electrophysiology
accessible
exposures
unsupervised
neighborhood
caught
tikhonov
anatomically
takes
clip
hamilton
clin
gerhard
diamonds
phrased
phrases
bregman
clay
firing
discarding
nonnegative
mrna
clas
dependent
mimics
discounting
dramatically
code
coda
engineers
recorded
two-sided
manuscript
difficulties
preposition
cision
unscented
database
cope
crossover
copy
cook
coon
lying
adequate
kiang
conf
cone
conv
cont
cons
comm
comp
lifetime
practice
waltz
cosh
cosi
caudal
period
cost
subsampling
corr
corp
corn
core
cord
cohn
energies
broadening
whilst
colt
cold
cole
coli
bandwidth
coin
sheets
coil
frequencies
expressing
nadel
precede
expression
uyar
tails
nonlinear
occupant
rashid
interpretation
inspired
expressive
kansas
markus
drifts
illness
averaged
nadal
averages
strange
nature
stopping
strands
rises
invited
markov
rectifier
risks
wide-field
rectified
burgard
beckman
wavelets
repair
marked
market
marker
markel
10-fold
requisite
endings
alternate
violates
violated
accurately
vertically
irradiance
cies
wafer
clipped
equilibrium
suppressive
probabilities
vehicle
easily
reserved
strengthen
cial
extends
easier
clarified
unreasonable
offer
suppressing
suppression
glint
replicates
autonomous
choi
vivo
replicated
seibert
grimson
chip
chir
trajectory
renormalized
chua
chum
years
dominating
cartesian
domination
databases
rigidly
chou
riken
chow
replicator
formula
coincident
cauchy
accumulating
view
execution
leopold
elicit
jumps
accumulation
halbert
bible
vice
vide
complexities
bilinear
chen
submitted
subject
adhesion
design
chan
cham
char
chap
firmly
viii
underlying
executing
confronted
cluttered
differences
wahba
implemented
fruit
shapley
encourage
unfaithful
groningen
variety
listing
titis
10000
cylinders
marginal
reinforcements
desire
100.0
truncated
tending
senses
kepler
specifications
testing
tally
ocular
deficiency
sensed
cautious
scarce
nand
nasa
sensor
natl
nato
nats
blurred
positional
nary
restriction
kinds
hybrid
restricting
grasped
positioned
navy
widths
quenched
identifiable
sooner
hertz
succeeded
mammone
nachtigall
examining
non-trivial
constellation
zhang
marchand
high-order
aliased
cochlea
survey
reprinted
high-gain
factorization
vantage
allocations
sweeping
sorting
engine
optimizations
lesions
gathered
10-20
helmholtz
disparity
unweighted
heating
ultimate
scofield
time-domain
derrida
governs
bigram
batches
product
produce
ipsps
organisms
suggested
restrictive
nation
exons
intuitive
repeat
cleaning
city
datapoint
holographic
rings
faithful
north-holland
intuition
samuel
preparations
rigid
native
ensured
ensures
schulten
stearns
multi-layered
dimensionless
rational
underlies
syrinx
conductance
prominent
influences
influenced
freezing
september
error-correcting
scanned
low-dimensional
band-pass
mounted
distribute
impulsive
cdma
bottom
accordance
ballard
reflect
dipole
zurich
macmillan
veto
constituted
constitutes
verb
community
kangas
outliers
repeats
checksum
spinal
shrinking
tasks
elongated
diabolo
arousal
spines
lecture
compositions
marvin
precedes
roughly
preceded
pairwise
retention
stimulated
orbits
aperiodic
tectum
darken
redwood
arising
darker
drifting
particle
publication
occupied
input/output
occupies
partly
warped
basins
source
retrieve
gation
gating
triplets
extractors
goldberg
capabilities
reproduction
amounts
motivate
monomials
spikes
manipulating
asterisks
henry
manipulation
solid-state
pre-defined
optimizers
extra
concentrate
enhancements
landauer
purpose
availability
abstracts
delaunay
austin
australia
terence
minimizing
cess
corrections
shaping
permanent
well-behaved
reactions
shapiro
cell
conflict
monoamines
eventually
observable
corrected
cept
weight
cent
couples
object-based
coupled
initial
undergo
possibilities
scaled
shells
scales
correctly
martin
12,000
epoch
photoreceptor
florida
regard
meet
experimentally
ronald
outputs
laughton
days
meir
taining
exclusive-or
completely
jackknife
brown
ment
patches
verification
western
memo
shrager
nasal
diluted
furukawa
merz
mesh
reviews
merl
mere
favor
bipartite
meth
metz
sensitive
input-output
christopher
agreed
interrupted
agrees
whittle
transmitter
hillis
invertebrates
ridge
transmitted
ogawa
proportionality
parses
differs
parsec
parsed
parser
demands
encoded
barycentric
encodes
encoder
utile
segmenting
covering
sinusoidal
recombination
shepard
illusory
motoneurons
entries
france
laboratories
franco
lesioning
earlier
russian
optimisation
franke
grasping
curvature
unified
melodic
recognized
smaller
mdps
raster
recognizer
recognizes
ricoh
keesing
loopy
loops
circumvent
fault
dcps
loose
confer
inactivated
compression
putting
compressing
nuisance
subjectively
mead
pneumonia
interests
time-frequency
mech
underdetermined
promoting
project
frames
collects
deformed
incorrectly
variance
bellman
reusable
newspaper
rewritten
void
finance
inconsistencies
matched
matches
vote
intermediate
repetitions
coordinating
coordination
inertial
volt
numer
quantization
pasadena
undergoing
russell
vout
organ
vovk
storage
micropower
deep
favorable
favorably
deci
asserts
deco
deal
lisberger
dean
dead
enforce
rowley
florham
requirement
unoriented
neuromorphic
arbitration
completes
published
completed
subsample
englewood
subnet
importantly
irregularity
piecewise
front-end
irvine
dissipation
dept
signify
reinforcing
marwan
dent
factored
sherrington
clarify
wiener
finally
rieke
consideration
dissipative
multilevel
checkers
mercer
depolarization
judgment
made
vmax
maturation
farah
deterministically
surgery
indicating
indication
mail
main
tremendous
surgeon
report
yoshida
deficits
fourth
primal
quiescent
forming
mach
karhunen
gluck
primed
visualize
math
mato
mate
loses
maze
maxi
cross-validation
regularize
burdick
cubic
subscribers
mann
translation
reverses
reversed
male
translating
mase
beliefs
indicative
mask
mass
marc
low-frequency
mark
mart
marr
mars
mary
administration
disadvantage
reversal
replacing
maps
self-consistent
bessel
estima
general-purpose
anticipated
reflection
combinations
regularity
reflecting
occurrence
bipole
similar
subsets
subtle
capturing
deconvolution
issues
called
naval
hamiltonian
bruce
entorhinal
bruck
terminology
biehl
bruno
biophysics
exponentiation
agree
fraser
analysing
benchmarking
directionality
p-channel
contiguous
animal
reggia
operations
comparisons
metastable
memory-based
progressively
blurring
returns
brute
agrin
preservation
rescheduling
mcmc
allowable
orbit
albright
bounds
shepherd
srihari
zones
raining
emphasizing
magnification
subset
wilson
audiovisual
rations
mdac
salience
saliency
supposed
arrows
concluding
million
characteristics
promoters
descending
postsynaptic
receptor
mcps
started
supports
violating
checking
makhoul
on-chip
future
uniform
entropy
verifies
verified
underway
condensed
state-space
wiesel
respects
violation
biggs
dave
wolpert
passages
vlsi
data
date
dash
dard
dark
bromley
laughlin
illusion
shift
dana
altitude
maintaining
rewards
ratings
dale
speaker
dedicated
user-defined
dags
order
ships
immature
boundary-layer
cluster
answered
illegal
expertise
nematode
backpropagation
heeger
100000
lower
nakai
expansions
freed
stationary
looked
movements
grayscale
necessarily
transposed
sampling
bending
birth
buffers
locator
lowering
parker
vector-valued
eigenvalue
connor
neurobiological
located
locates
naive
photorefractive
programming
analysers
sender
agent
irregularly
birds
contradictory
branches
asynchronously
two-class
chapelle
birch
permuted
reliability
parisi
minima
mining
parity
considerations
artifact
falls
variable
modulator
service
false
teller
prevent
disinhibition
appendix
spontaneous
whitley
modulated
triple
modulates
74.7
enlarged
counterparts
bottleneck
precise
serving
priors
dichotomies
priori
louis
minimally
closely
100.00
nique
smoothly
low-pass
sought
october
closest
synchronizing
storing
illumination
paring
invariant
interfacing
orientations
smoother
smoothed
stories
kowalczyk
nearest-neighbor
demanding
controllable
monk
mood
independently
nicholas
mono
ternary
contiguity
sheet
phillips
quantisation
strictly
regime
move
region
moss
patients
saturates
mori
mort
cueing
saturated
representing
moon
implicitly
resource
shear
gustafsson
observables
o'reilly
princi
forthcoming
prince
analogs
analogy
shell
explorations
lookup
modi
mode
typical
modu
centered
monaural
fresh
insignificant
abstractions
execute
contin
oriented
diabetic
diabetes
water
apply
self-consistency
cornell
peripheral
apple
whitening
fourteenth
guides
guided
functionally
formant
spread
filtered
parietal
infrequent
fails
buffalo
controllers
jolliffe
successes
watts
bingo
tenenbaum
mize
clarity
mill
significance
alleviate
mild
mina
consid
fractional
mine
mind
ming
mini
mips
contradiction
opponent
miss
parent
neuronal
computer
sanger
computes
locations
computed
mike
completion
mika
decomposing
estimations
prognostic
merits
completing
curl
measured
binds
measures
indiana
cuts
cusp
nance
neurones
mial
monotonically
underlie
cult
appro
certainty
devoted
equidistant
equalities
cups
waste
discrete-time
table
cube
position
aging
article
gradient
preclude
cued
positive
cues
psychophysiology
all-or-none
mlps
waves
rajesh
landscapes
names
named
april
convey
consists
convex
frame-by-frame
foraging
aspects
catecholamines
diversity
closing
presumption
argument
minimised
perplexity
minimises
subgraph
convenient
forecasts
waiting
time-scale
english
expectation
casting
low-cost
logical
indices
exceptions
algorithms
prisms
endogenous
merges
merged
controlling
interfaced
diffuse
firstly
interfaces
orthogonality
cation
watanabe
gisbergen
successor
faggin
datasets
upward
analog
biped
richmond
microsystems
gregory
reporting
innervated
subsequent
cholinergic
tagged
fraud
waugh
improve
rutgers
section
corners
occurring
frank
employ
mimicking
connections
frame
substrate
encountered
shape
constituent
presumed
share
sharp
carlile
overtraining
notation
formally
basin
basis
1-dimensional
basic
derived
derives
mondrian
brandeis
oscilloscope
braun
flipping
boltzmann
rection
huber
ullman
hubel
disagreement
basri
instrument
multiuser
bridle
assignment
requiring
beneath
eleventh
outgoing
interlocking
outset
displayed
placement
4.1.2
4.1.1
resolve
patent
warping
batch
characters
kirillov
wait
stance
convention
geniculate
modality
integrable
integer
forever
stands
spectrograms
body
ithaca
modelled
receptive
walk
wall
enhance
wake
spectrographic
barto
daubechies
barry
crustacean
wada
inhibition
bridge
griffin
reception
modulatory
inhibiting
modulators
coherence
turning
brain
ways
born
displacement
microchip
paired
coding
brady
bout
iterate
voyager
bowl
discovering
bohr
bases
regression
traced
ward
ware
traces
wang
boston
brane
brand
based
bold
grating
ramanujam
thrown
integra
indebted
subclass
wave
warp
bond
synapses
bone
wash
bonn
left-to-right
book
basal
bright
miyake
intelligence
opening
chamber
component
traversal
activity
persists
viewed
tracks
minimized
steerable
package
traversed
minimizes
minimizer
voluntary
pointed
pointer
hoyer
callaway
traverses
dembo
webb
behaviorally
demon
pheromone
organizing
cortices
substantially
week
meaningless
gracefully
cortical
miyata
learner
learned
weak
wear
coastal
formants
transpose
atlantic
transport
artery
evaluated
discrete
evaluates
steepness
traded
trader
keyword
fixed-width
college
chemical
extrinsic
suzuki
huang
positivity
depends
collect
members
delay
fastest
phonemic
gradually
click
versatile
blur
blum
blue
alternates
brought
modeling
amount
spectrogram
phonemes
provided
bauer
delta
rotations
viewpoint
hard-wired
southern
wasted
minsky
fisher
producing
schmidhuber
repertoire
strategy
attraction
attracting
clarendon
phonological
ensembles
predict
broomhead
settings
diorio
distractions
criterion
regressors
relevant
non-radial
inequality
krogh
aertsen
unusual
multiple
spanned
multiply
historical
inferring
axons
observation
shortening
ninth
landing
blob
benefit
protein
observational
arbors
contingency
banks
projective
close
england
fraction
bands
break
flexible
sitting
clock
projecting
exhaustive
projection
morris
concatenated
windowed
activating
logarithms
simard
by-product
explosion
photographs
parametrization
clocks
inexact
nowlan
wired
cloud
dempster
answers
wires
activation
opened
animation
loading
circumvented
bite
bird
electronically
bins
biol
bill
lights
evidential
portions
orient
bind
rotation
refresh
rotating
jitter
concludes
envision
concluded
intense
unrealistic
hough
resolution
bits
actively
lamprey
synaptic
firings
provably
barak
baram
patchy
retaining
cavity
logistic
inhibitory
house
hours
measurements
amenable
surroundings
browsing
modalities
projections
successors
debate
careful
captured
distortion
recollection
singhal
yeung
captures
transients
island
ahead
barrier
morphs
collins
modulation
null
modulating
bryson
codons
foveal
ration
positively
ratios
compressed
commonly
well-defined
rating
breaking
bias
non-optimal
macintyre
6.00
northwestern
6.25
calibration
separable
tition
failures
obtaining
mutual
orthographic
bielefeld
properties
origin
magnified
ad-hoc
situated
interfering
trapped
yielding
cursive
barber
tensors
odor
category
exploited
phonetic
decay
derive
inherently
non-deterministic
duong
odds
teacher
teaches
anandan
instructed
morgan
convexity
closure
voiced
opposed
long/short
plateau
signals
attained
thresh
arithmetic
patterns
monitoring
death
striking
department
assimilation
dispersion
suspension
rehovot
correlating
premise
correlation
attenuated
venkatesh
randomization
whitelaw
dentate
schema
inspiration
scheme
cancels
implanted
document
tempting
improper
ligand
bennett
shunt
brian
robinson
minority
thalamic
hodgkin
ancestor
recycling
prefrontal
bring
wine
wind
wing
crawfords
wins
thalamus
sphere
bfgs
wise
wire
nakahara
window
dealt
deals
reconfiguration
shorter
glomeruli
escaping
simulation
cached
highlight
shortly
kruse
orban
efficiently
vienna
genevieve
executions
distributional
refinements
berg
template
obey
dummy
beta
bert
bers
cognition
preserved
rectangles
belief
preserves
superscripts
evolving
bell
coverage
distances
simulating
barrett
bees
beer
cognitive
context-free
columns
minimisation
interna
optimization
beck
barely
bear
beat
receptors
bead
beam
high-speed
best-fit
attractive
stages
activate
non-vanishing
suffices
adopts
douglas
governed
high-performance
running
transferred
interac
helpful
two-point
hopkins
conclusions
relying
hadamard
013
011
012
018
015
010
025
0/0
generalization
attias
wolfram
noticeable
efficiencies
005
000
001
002
003
helping
brody
broad
vancouver
acquisition
rooted
reflects
flexibility
potassium
multilinear
tended
aperture
hypercube
unobservable
illinois
protocol
0.5
0.4
niels
0.3
0.2
0.1
0.0
0.9
0.8
0.7
0.6
0-1
0,2
0,1
0,0
0,4
lowers
lowest
belong
regulating
expectation-maximization
counterpart
regulation
hawkins
simulators
increased
increases
gustatory
switzerland
mueller
unacceptable
mountain
159
158
157
156
155
154
insertion
152
153
150
151
169
166
165
168
167
161
162
163
164
inserting
160
179
178
177
176
170
171
174
175
172
173
pop-out
188
187
189
180
181
182
183
184
185
186
electrophysiological
116
117
114
115
112
schaik
113
1/n
110
baddeley
111
118
119
125
126
127
128
121
122
123
124
129
coping
portrait
120
tentative
134
135
132
133
138
139
136
137
131
130
143
144
145
146
147
148
149
140
142
141
integral
waking
jackson
correlate
cheaper
cytochrome
soderberg
195
194
197
196
191
190
193
192
198
199
watkins
copied
papadimitriou
1:1
copies
supercomputers
3,000
organizational
responsivity
1,000,000
coplanar
sutherland
50,000
grossly
rodriguez
preference
elsevier
milliseconds
flicker
rotates
foreign
rotated
invoke
tension
hundred
time-delay
1.8
1.7
1.6
1.5
1.9
1.0
1.4
1.3
1.2
one-to-many
1.1
1-5
1-4
carriers
1-6
inputs
1-8
1-1
1-3
1-2
109
108
107
activated
106
velocity
105
104
103
102
101
augmented
100
1-d
activates
1-a
crystal
1/6
1/8
1/3
1/2
1/5
1/4
conduc
audition
symbolic
schaal
west
1,1
minute
1,2
1,0
sphinx
1,3
cheeseman
wien
clump
barr
barn
semantics
bark
shown
wide
shows
compartments
bats
bath
bars
bart
buttons
bass
base
coefficient
software
band
bank
two-layer
sondhi
complementary
clues
improves
substitution
improved
wild
substituting
preceding
short
axial
baum
synthesize
deutsche
back
bach
jensen
original
gestures
formulation
conclude
formalism
numbered
yes/no
formulating
corporation
bahl
bair
bain
hessians
ball
stored
stores
adjoint
formalize
stable
output
stably
attractors
pressure
prices
bags
articulator
objectively
refractoriness
electroreceptors
cording
permissible
meister
occluded
occluder
modelers
parallel
intriguing
lectures
unsuccessful
drafts
articulated
bayes
boosted
min-max
onsets
unsolved
peter
pronunciations
hand-written
anomalous
disappeared
stacks
edward
discovered
parametrized
eduardo
flower
state-dependent
parallax
tendency
physics-based
comprehensible
spurious
wiley
wiles
santosh
clutter
kappa
531
530
535
534
533
532
539
538
537
536
posteriori
queueing
540
initialization
542
541
bandwidths
544
543
546
545
kotani
548
547
549
biggest
qualitatively
513
512
511
510
519
518
517
516
515
514
522
521
524
523
520
529
526
525
528
527
571
570
strengthening
574
575
572
573
578
579
576
assessed
577
580
582
581
seminal
preferred
583
584
585
586
587
588
589
558
559
556
metcalfe
557
554
555
552
553
550
mansour
551
560
conductor
3rd
covariances
569
565
566
567
lowered
568
561
562
563
564
entropies
dolphin
assured
5,6
simpler
simplex
barkai
subtracted
integers
5.9
weston
505
506
wrap
503
504
509
507
508
501
502
500
tangent
montreal
5-6
5.7
5.8
5.5
5.6
5.3
5.4
5.1
backgammon
5.2
5.0
comers
thirteen
conducted
yorktown
negligible
carl
cars
carr
care
card
cart
cast
cash
case
unimportant
cate
cats
assures
69.7
shrinks
originate
yoshizawa
camp
eichenbaum
thousands
confusion
cans
assembly
lagrange
capa
3x3
595
594
597
596
599
598
coincidences
590
591
592
593
explanations
kaplan
call
average
4-d
subclasses
409
408
405
404
407
406
401
400
403
402
superficially
418
417
416
415
419
410
414
photons
413
412
westheimer
411
2nd
427
426
429
428
421
420
423
422
425
424
integrator
435
436
433
434
431
432
430
439
437
438
classifiers
hanazawa
444
fleet
445
446
447
440
saddle
441
442
443
448
449
450
453
454
451
452
457
458
455
456
459
461
2rn
460
462
463
464
465
466
nist
467
468
469
nism
ning
nimh
alphabet
lowing
nips
refractory
polynomial
displaying
4,5
2in
4-0
4-1
4-5
4-6
stabilize
stochastically
4.0
4.1
4.4
4.5
4.2
4.3
4.8
4.9
4.6
4.7
bharucha
passed
passes
points
ruyter
brunelli
unstructured
empirical
modem
model
modes
487
486
485
484
489
488
482
483
480
481
474
473
476
475
478
477
chiang
479
470
471
472
integrates
2x2
respective
modal
differencing
499
496
495
498
497
491
492
integrated
493
494
490
parity-check
requests
turned
turner
voice
taube
graphics
theorems
naturally
338
339
332
333
330
331
336
337
334
335
349
341
342
343
344
345
346
347
348
340
318
319
316
317
314
315
312
313
310
311
327
328
329
323
324
325
326
320
321
322
volts
3/2
3/4
3-d
300
302
301
304
303
306
305
seventh
308
307
309
kanji
1in
3-5
3-4
multivariate
3.0
3.2
3.1
3.8
3.7
3.9
3.4
3.3
3.6
3.5
phasor
singh
densities
spots
phased
3,3
3,4
3,1
3,2
zipser
phases
unnormalized
coolen
constellations
hogan
ideally
voltages
phasic
phonology
torques
validation
colorado
nice
non-monotonic
nick
referred
depicting
resolves
depiction
simon
arbitrary
emission
interconnected
stability
acquiring
octave
pouget
simul
syndrome
3:1
3:9
391
390
393
392
395
394
dementia
396
397
398
399
zimmermann
383
384
381
382
travel
380
389
388
387
386
385
370
371
372
373
379
378
375
374
377
376
1st
361
362
non-adaptive
360
366
365
364
363
sharing
369
368
367
exist
350
351
353
352
355
354
357
356
359
358
2/3
2/2
2-d
202
sharkey
203
204
205
200
201
206
207
208
209
211
212
210
215
216
213
214
219
217
218
overshoot
synchro
220
221
222
superpositions
223
224
225
226
227
228
229
toulouse
versus
2,3
2,2
2,4
2,1
eliminates
eliminated
2-5
2-4
2-3
2-2
2-1
chicks
sample
2.5
2.4
2.7
2.6
2.9
2.8
2.1
2.0
2.3
2.2
badly
implementations
commercial
inversely
representatives
negatives
challenges
glance
challenged
appropriately
resolved
trapping
maximization
discourse
facilitate
kinematics
variational
suggests
alternatively
school
281
280
285
284
barlow
283
282
288
289
286
287
270
272
271
274
273
275
276
277
278
279
offline
blackwell
294
293
296
295
290
292
291
297
298
299
240
241
one-dimensional
amplifies
amplifier
245
244
243
242
amplified
249
248
247
246
230
239
232
231
234
233
236
235
prepared
238
237
262
263
260
261
analytical
269
268
267
266
265
264
densely
250
251
252
258
probabilistically
257
259
254
253
256
255
942
competitors
940
945
946
943
944
949
948
lambda
trick
930
931
932
933
934
935
936
938
equalizer
929
920
triad
927
928
926
923
921
922
object-oriented
919
918
foundation
displaced
trial
916
917
910
911
912
913
907
909
989
988
987
982
981
980
985
984
983
7th
mixing
chauvin
977
976
979
excitations
978
nonlocal
970
973
972
975
golomb
969
965
964
963
962
961
960
959
958
955
954
956
951
greenspan
950
953
reported
7x7
petersen
97a
997
994
995
992
993
990
998
999
0.999
corporate
becker
vertices
deleting
styles
articulatory
articulators
relevance
deletion
sammon
vertical
penalization
gatsby
grateful
vertex
hypothetical
incrementally
italian
striate
magazine
mitchell
judgments
brains
phenomenological
schematics
806
807
804
805
802
803
800
801
propagation
neff
attract
blocking
8.7
8.6
8.9
8.8
824
825
822
823
828
829
826
820
821
division
barney
819
barnes
811
812
813
814
815
precisions
817
818
810
propagating
809
808
842
multiplications
841
840
849
848
846
845
844
theories
830
832
831
838
837
839
834
833
836
835
neal
861
860
neck
865
864
863
862
869
868
867
866
850
852
851
854
853
856
855
857
859
15,000
6th
888
889
884
885
886
880
881
882
883
879
877
878
875
876
874
871
872
870
incoming
closes
closer
silva
closed
6x6
890
899
decremented
893
891
892
897
898
895
896
divisive
diaconis
accomplish
estimating
fixations
driven
driver
drives
nels
real-world
mismatches
wood
flake
neur
london
coming
wong
elongation
digital
interconnections
utilization
news
janssen
nets
neti
12000
ness
wolf
wold
rapture
flash
doubling
travelling
reinforces
flare
asymptotics
judge
characterize
work
flank
worm
landmark
word
9.0
9.2
9.4
campus
9.7
9.8
9.5
9.6
contained
reinforced
representations
904
confuse
903
906
905
900
902
901
implants
748
747
746
745
749
740
744
743
742
741
735
734
737
736
739
738
schouten
731
730
733
732
729
728
727
726
725
724
723
722
721
720
709
717
716
719
718
713
712
715
714
711
710
700
703
704
701
702
707
708
705
706
7.8
7.7
7.9
7/2
7.5
7.6
7.3
7.4
7.1
7.2
7.0
planned
wider
planner
monographs
byte
hofstadter
5x5
localizing
799
798
797
796
795
794
793
792
790
791
781
782
783
rosenfeld
784
785
786
787
788
789
request
5th
780
772
773
770
771
776
777
774
775
778
779
cooper
compactly
763
764
explore
765
766
760
761
762
767
768
769
alexandre
754
755
752
753
750
751
watkin
758
759
756
757
fourteen
elements
contents
individually
vapnik
alexander
auditory
differing
estimation
kraft
exploit
changing
8.3
8.2
8.5
8.4
8.1
8.0
criticized
schneider
vertebrates
explained
601
600
609
608
607
606
605
604
603
602
6.8
6.9
multi-modal
exploitation
theoretic
623
622
621
620
627
subspace
626
625
624
629
628
clouds
610
612
611
614
613
616
615
618
617
619
sufficiency
subsequences
6.2
6.3
6.0
6.1
6.6
6.7
6.4
6.5
ill-formed
6,7
schreiner
687
686
689
688
683
682
685
684
680
681
4th
678
677
676
675
674
673
672
671
679
670
4x4
696
695
694
693
699
698
697
691
692
690
646
647
648
649
642
643
644
645
640
641
639
637
638
635
636
633
634
631
632
630
668
669
660
661
662
663
664
665
666
667
64k
inability
659
657
658
651
652
650
655
656
653
human
654
treue
dataset
wyatt
trend
windows
assumed
assumes
spanning
neuromodulation
respect
width
ruderman
density
mammalian
wesley
innervation
reserve
trees
soybean
second-order
treat
draper
plastic
incurred
neighbouring
brigade
pathological
truck
horne
counter-example
short-lived
legend
tensions
reciprocal
reconfigurable
burgess
village
verges
branch
6000
boosting
suggestions
hulls
emulate
penalty
philosophy
trunk
sight
peaks
succession
instantiations
signs
worms
analogue
sigma
truth
trust
works
world
0.500
60.0
tapped
successive
spice
words
applying
normalisation
companies
cities
explain
separator
henkle
impossible
stations
worth
commun
unpredictable
permit
spelling
non-intrusive
describing
shumway
ethernet
worst
worse
receiver
received
fortunately
extendable
receives
common
clamp
nrem
commit
hitting
pearl
complete
companion
many-to-one
claim
utterances
separated
barron
separates
sigmoid
distinctions
barrow
relational
clark
n-dimensional
class
azimuth
baker
entry
saitama
invert
winner-take-all
invest
mortality
imation
insensitive
graduated
heuristics
carlson
balls
packing
facilities
linearization
verify
hoped
detections
exceed
brings
neighbor
exact
enter
surely
greedily
lipschitz
weighting
competitive
energy
ansatz
lagrangian
coetzee
bump
deter
littmann
bull
bulb
busy
bush
incorrect
burr
burt
difference
syrup
burl
competition
end-effector
9x9
fifteenth
longer
stabilizing
non-unique
neuromodulators
baldi
beginning
9th
government
triangulated
causal
exclusive
tightly
abbott
kirkpatrick
narrowband
sonorant
spect
generally
speed
michael
decoupling
perona
ambiguities
caused
spent
customers
macroscopic
devil
spend
tighter
lexington
cardoso
kernels
alertness
piecewise-linear
continuation
vocal
jonathan
amacrine
stacking
symmetrically
lamina
8x8
estimators
elemental
acquire
admissible
8th
noun
dasgupta
cichocki
excess
abstracted
detrimental
nohl
decipher
antennal
antennas
node
dense
caruana
norm
accelerate
rolling
landsat
incapable
nose
disappears
proceed
limited
richard
unspecified
marcel
vocabularies
dence
remapping
0.125
rectangular
revision
process
noda
revising
substitutions
infants
verlag
discharge
discarded
convincing
insufficient
chines
sided
sider
sides
turing
injections
todorov
barriers
proteins
merging
0.035
legion
exponents
split
multitude
0.012
0.010
0.015
0.014
0.024
0.025
joints
multilayered
0.003
0.002
0.005
0.004
0.001
0.000
0.007
0.006
0.008
specifically
goldsmith
cardiac
triggers
on-line
state-based
efficient
woods
joined
clones
d-dimensional
nmda
time-series
precursor
dialogue
trains
rising
constant
thousand
holes
entering
antenna
sontag
holds
compartment
clear
clean
interpretability
stated
exert
integrations
depth
one-to-one
encouragement
articulation
nmos
konishi
blueprint
inevitable
static
gnarl
inevitably
mcmillan
states
material
non-symmetric
vectorial
australian
uninteresting
thrust
tropy
camera
person
pay-off
darrell
status
limitation
temperatures
mammals
discriminant
raleigh
ahmad
baird
subregion
wearing
starts
wolff
successful
kryukov
wolfe
revealed
spite
financial
dimensional
flip-flop
marcus
discriminate
amorphous
developments
marder
spike
oculomotor
directions
lugosi
dejong
compar
customary
triangulation
spins
spiny
tangential
silent
packets
physiologically
preprocessing
ordering
inversion
maintenance
widely
excite
translational
research
transforms
excitable
justin
stressed
women
esti
drawing
realised
estimated
essa
lakoff
column
espe
sequential
estimates
svms
cycling
exploits
estimator
assistance
explicitly
space
formulate
proposition
inserted
skewed
embedded
maximise
incidence
adversary
speculate
spans
neurosciences
absolute
builds
emergence
subsequently
sparc
maximize
repository
replications
transformations
stanford
ennis
hallway
symmetrical
fixing
possesses
succeeding
bumps
collapsing
collision
sung
sums
robbins
cleveland
tiling
sulu
erps
suit
disabled
visualization
eric
opper
suen
divergent
middle
november
doubt
rearrangement
ered
adverse
sends
sual
oscillatory
fulfills
oscillators
ruppin
induction
twelve
figure
proceeded
simplification
vanishes
high-dimensional
wishes
sensorimotor
wished
wechsler
crisp
restricted
fluctuations
stud
linked
sense
responsibilities
stop
josef
equi
rollout
matter
awareness
incorporation
incorporating
perrone
stim
implicated
resembling
parallelizable
mallat
pittsburgh
melodies
stoc
cient
locate
approaching
satisfiability
supplemented
transfer
batteries
heuristic
stay
star
stat
stan
downstream
conceived
unitary
translations
ishii
observability
emulator
stem
step
convergence
excitatory
victimized
repeated
proportion
struct
rigorously
complication
actual
cherkassky
emulates
zemel
yamashita
dopamine
portfolio
keeping
synthesized
corollary
predicts
synthesizer
interacting
reproduced
randomized
filled-in
organisation
reproduces
specifies
disparities
knot
twenty
knew
etal
monte-carlo
matrix
space-time
metrics
kernel-based
tabulated
transitions
problematic
ecole
cosine
oscillate
ignoring
interaction
speak
unification
kalman
kolmogorov
beneficial
interactive
nearest
superficial
korf
rochester
gentner
nguyen
korn
visited
ceases
enjoy
kong
backbone
effected
magnocellular
template-based
koza
ferster
recovering
build
encoding
built
january
concatenation
concatenating
effector
glasses
koch
restricts
implicit
egocentric
isard
isotropic
birdsong
adult
representative
moulins
continuous
subgradient
boulder
schuster
representation
kohn
gurewitz
downs
octaves
number
implant
accommodate
kyoto
doyle
optic
isaac
guarantees
guaranteed
include
look-up
flight
syst
learnability
frame-based
serve
eval
servo
habituation
hemisphere
pseudo-random
incrementing
complications
inferences
distinct
updating
proportions
sommer
pulled
rosenberg
mitral
self-similar
meaning
seung
holloway
lasted
oscillating
matlab
oscillation
reason
respond
heading
savings
dozen
deformable
variation
rohwer
so-called
validate
eyes
deepest
distractor
summarize
benkert
unused
strategies
afforded
lastly
blocked
pre-specified
chances
regarded
pinkas
investigates
modification
investigated
neurally
krzy
pinker
evoked
swim
sketch
realisation
kennedy
editors
hardware
identically
mitsuo
investigator
selectively
resolutions
positives
justified
justifies
zeros
exam
relationship
pattern
kenneth
1.000
differentiable
retrained
sudden
clean-up
obtainable
usefulness
divider
divides
exit
canadian
divided
cross
acquires
acquired
discretized
circuitry
splines
expo
setup
exon
augment
instruments
imaginary
elaborated
advantageous
atypical
hinder
broadway
inference
preparation
avenue
interspersed
violations
encoders
joint
undirected
imitate
segev
utterance
production
concurrent
juggling
preconditions
policy
tangents
sequentially
weaker
weaken
history
conform
extracted
accumulates
accumulated
light
documented
manager
quantified
quantifies
twelfth
managed
externally
occurred
weakly
pixels
triangle
dolce
mutation
scalable
evolve
signaled
kuhn
seeds
paperclip
exceeding
congestion
categorize
seeks
extractor
kuan
accompanying
haffner
costly
ohira
national
neglects
detectable
mentioned
engel
fluorescence
visibility
conditions
freedman
communications
kurt
contributions
waveform
virtually
crude
ill-posed
linden
linder
sketched
categories
programmer
languages
programmed
converged
changed
fusion
converges
quantitative
kung
differential
permutation
laterally
emer
evoke
moments
momenta
schenkel
emit
sustain
princeton
principally
kernel
leonard
scoring
accumulator
jointly
transmission
linear
vowel
carnegie-mellon
simulate
self-organization
johns
sharpen
sharper
accomplishes
accomplished
carver
sharply
theory
gradients
crossings
donor
grace
hand-crafted
gradi
grade
severity
elec
self-similarity
selectivity
successively
describe
multidimensional
identical
courses
reject
cybernetics
unrestricted
concentrations
kremer
anesthetized
towell
junction
ents
correspondingly
permutations
gemini
ockham
kwon
stereoscopic
assessment
albeit
somers
voted
votes
leblanc
implantable
modular
envi
signifies
problem
modules
jones
conformation
procedure
admit
irregularities
instantiated
turbulence
implementing
doors
unpublished
clamped
quantities
cardinality
apparently
baylor
changeux
ohmic
connors
sakurai
living
occurrences
non-volatile
adversely
diagnostics
emma
zeroes
perturbed
upright
non-convex
spatial
squaring
blumer
two-step
primates
ence
ends
entropic
validity
metamorphosis
require
supply
positions
followers
diverging
locked
multimodality
feudal
annealing
engr
sensory-motor
throughput
caution
coloring
channel
duplicate
disjunctive
tail
tain
wealth
reverberating
recursively
tags
epsp
screening
tage
gittins
floating-point
tant
tanh
tang
tann
facilitating
tank
deliberately
talk
benchmarks
tape
taps
on-off
task
adopt
scanning
taxi
cosmic
south
mccallum
ended
courtesy
replica
hundreds
thesis
spelled
sound
inductive
usage
greedy
disjunction
implementable
instantaneously
jolla
communities
pinter
oliveira
up-down
pioneered
multi-channel
organizations
balance
breakdown
burst
phase-space
hoeffding
decayed
hinges
discusses
arline
homology
evaluate
georgetown
burke
selec
half-wave
discussed
eighteen
severely
realizes
contrasts
realized
fourier
institute
confirm
buses
confine
busey
nonzero
macdonald
longest
compatible
muscle
mature
facilitation
pruning
subtree
largest
rectangle
nystagmus
compensates
efferent
compensated
spaced
spaces
inactive
largely
configurations
modulus
pitches
medial
median
riemannian
updated
honeybee
pappu
binomial
lippe
reilly
chris
updates
adding
georgopoulos
antisymmetric
embody
compositional
bidirectional
pickard
angeline
marijuana
whitened
exciting
ventricular
a-priori
practiced
uncorrupted
instability
mclachlan
documents
medium
overly
micron
unaffected
practical
repetitive
assuming
abscissa
microseconds
tuple
multivariable
williamson
sources
recursion
gutfreund
repetition
paper
dramatic
prentice
malvern
fets
adelson
separately
log-likelihood
joining
solving
faithfully
constituting
recursive
maximally
crista
subdivided
society
fell
ther
apparatus
standardized
structure
vernier
delivers
theo
delivery
stepwise
disregard
overlapped
thin
hochstein
feng
stevens
impedance
subparts
straight-line
intervals
exploration
networks
spontaneously
capacities
addressable
similarities
feed
feel
feet
directed
simultaneously
symbols
favoring
quasi
donald
directly
employing
regulatory
omitting
domestic
tend
parts
party
tent
tens
tems
anton
parti
interneuron
synthesizing
parse
parra
ffts
prepositions
earning
1-bit
response
tech
judging
reasoning
unlabelled
avoidance
after-effects
team
roger
viscosity
doppler
customer
critic
paral
crites
param
intercept
turbo
exhibit
grids
sorts
takeuchi
opaque
suddenly
paris
excites
excited
degree
complicated
turns
hologram
pared
complicates
assemblies
potential
parga
papert
papers
probing
extensive
allman
urban
yoram
forget
ballistic
concurrently
comment
settles
initiation
extension
initiating
archive
recognition
settled
cations
quoted
crystals
quotes
encouraging
attain
constantinople
critical
initiative
previous
reasonable
responds
proportionally
text
converters
meters
demonstrations
test
addressed
rescaled
addresses
magnifying
excised
schottky
attach
attack
visualisation
ters
tern
term
hasler
shortcuts
lytton
clearer
associational
optically
pharmacological
preferences
solar
strongest
indoor
perceived
perceives
unlabeled
periphery
phantom
contextual
quotient
optics
foundations
corpora
boolean
voltage-gated
hillsdale
unlimited
carter
species
young
equally
solla
repeatedly
derivative
madison
famous
tutor
georg
archie
solid
silenced
derivation
achieve
details
temporarily
special
fish
firm
fire
consonant
padgett
categorization
methods
sharpness
transparency
opinion
investigations
varieties
fits
formed
signalling
ments
spatially
recipes
acuity
substructure
residence
60000
sequencing
bulletin
geoff
providence
non-uniform
orthonormal
copyright
enforces
fiat
tradeoffs
enforced
queue
scores
gender
figs
scored
roads
roach
fluctuates
grain
fido
americana
file
grasp
grass
trade-off
sensitivities
query
steadily
richardson
well-formed
incorporates
cortex
grant
grand
incorporated
heavily
zebra
cortes
graph
menlo
fine
find
film
fill
three-layered
periods
linda
elaboration
locust
tins
ting
tina
lines
queen
coherent
tilt
till
sonar
tile
katz
hill-climbing
conveys
szymanski
songs
great
nijmegen
gener
genes
harmonics
gence
green
links
robot
method
inefficiency
tiny
panel
scotland
verifying
differentiated
tion
tips
satisfied
assembled
heiligenberg
variables
assembler
difficult
goodness
weaver
pennsylvania
satisfies
science
robin
exploiting
vessel
perturbing
setting
ranging
kaas
kearns
fujita
ties
downward
diophantine
kapadia
tied
tics
iteratively
tick
kamp
kamm
chord
specialized
format
chose
formal
convert
joachim
buchanan
converting
requested
feasibility
sufficiently
targets
dealing
genera
simplifies
trade-offs
limit
paolo
flee
simplified
solve
appearing
squashing
flaw
flat
hummel
decompositions
thallium
hashem
suboptimal
option
optima
replace
refreshed
attend
morphological
pedestrian
rocks
months
focal-plane
vehicles
synchronously
subunit
unwrapped
subjective
routines
ending
encompasses
told
tone
tong
subnetworks
b.a
b.c
hamming
tool
tony
closeness
involves
topo
involved
toot
sparse
tors
sodium
intermittent
todd
binary
express
eventual
darkness
loadings
montague
involving
maintain
artificially
pitchfork
indirect
judgements
trellis
residue
grove
tory
grown
grows
tour
sparks
town
gross
sixteen
featural
group
a-d
features
a-b
cleaned
warrant
carrying
unavailable
artifactual
bernardo
biophysical
merge
faulty
faults
academy
mutually
merit
coughlan
cleanup
duplicates
fellow
estimate
duplicated
direct
tertiary
partitioned
crossing
massively
language
chorales
contracts
explored
innate
malach
a.d
a.c
a.h
a.j
a/d
explores
a.m
a.p
a.s
end-point
colour
aggregation
bit
bio
bin
big
bij
bmi
d/a
d.c
ble
keys
ordinal
aggregating
bob
kerr
helsinki
colors
mcculloch
baxter
rostral
bmu
obtained
degradation
bifurcations
kinzel
bpp
bpn
bps
statements
bpl
bor
bot
box
boy
bbn
clockwise
bbd
refined
nuclei
overhead
bbp
bam
bal
bag
bad
bay
bat
refines
bar
bdg
fleisher
bci
bcm
bcs
prototypes
angles
bee
ber
ben
bet
quick
zeevi
bia
bic
bid
siemens
meter
integrate
wagner
quiet
cardin
ca1
ca2
ca3
metal
modeled
cb2
belgium
humans
economic
car
cat
cap
neglecting
cad
cam
cal
cai
transmit
cbp
cbl
predictable
bra
heights
integrals
bss
opera
arcing
integrand
hinton
improving
bus
buy
bvm
tongue
opens
subsections
intensity
aji
asymmetry
aii
aij
ail
aim
ain
aip
conductances
air
ait
capacitors
aid
aic
ahp
intensive
ahd
aha
agr
configuration
ago
illuminated
c20
ann
ant
ans
ana
50.0
ams
alx
als
alp
alm
alg
alc
c.e
ala
5000
holland
abe
abi
abl
abs
activities
aca
multi-valued
aaa
aat
kohonen
agc
age
aer
afb
carded
add
ade
resides
aea
adv
acm
ach
ace
act
ijcai
malcom
axi
ability
axe
induce
leapfrog
transmembrane
commissural
keck
hardness
defense
cesses
mcnaughton
arg
ard
frontal
arc
aro
arm
arl
arx
ars
art
separators
asa
ary
asi
ash
ase
plications
apg
app
apr
aps
regularisation
aux
avn
avg
ave
awt
awl
awi
philosophical
ata
ast
ass
asr
asy
atr
ate
ati
att
assigning
aud
aug
refining
essential
exponentially
perfusion
proximity
donoho
tsoi
outcomes
gratefully
recently
empty
buckingham
tensor
patch
patel
subjected
unfair
paths
overcomes
centrally
excitation
temperature
basically
hornik
viability
consonants
linguistic
forest
vectors
unvoiced
quarter
hastie
mumford
ringing
tissues
goals
regularities
possessing
chuck
reminiscent
pause
markman
subdivision
log-log
forgetting
damping
discount
occlusions
grouped
objective
terrence
posterior
hidden
gielen
amplification
face
differentially
collisions
skewness
oregon
tude
non-specific
tube
morristown
neumann
5.00
chunk
chung
fail
fair
experimentation
fall
separating
churn
discover
tune
tums
fang
lists
separation
microelectrode
rollouts
vanishing
coggins
obtains
lived
libraries
payoff
leakage
duncan
disorder
kirk
fast
eligibility
jordan
canberra
binder
ministry
augmentation
guiding
greyscale
anova
family
cambridge
pavel
lives
liver
aeronautics
feeding
40,000
complemented
rendering
continuity
opitz
5-10
marking
categorized
monkey
tree
tref
capacitive
long-lasting
avoids
aplysia
trai
tral
tran
trap
pulsed
pulses
invented
sobolev
tron
hospital
relationships
single-layer
maintained
forced
depths
forces
geometries
trix
trim
curvatures
olfactory
monthly
true
grounds
adjusting
continuing
spectra
pre-exposure
tsai
metric
kiel
extremely
bulsara
judged
meyer
clumps
imposing
subpopulation
collaboration
king
kind
command
murray
phase-locked
non-target
jet
compatibility
advocated
confused
drop
infant
jan
jepson
resist
jay
jaw
denoting
magnitude
assertion
imprinting
royal
jmi
interpreted
job
interpreter
joe
reside
jpl
l-1
jio
jim
jin
jij
l.a
drug
answering
2,000
ito
ity
ism
isl
iso
isr
ist
ita
itc
itd
ith
iti
ivs
minimum
iwl
ivi
ivl
ive
ips
ipi
friends
ion
ior
neuroinformatics
ioi
iol
iro
irl
iri
isi
isd
isb
ire
ira
draw
compelling
evidenced
evidences
dram
connected
ixi
ixl
finding
making
chains
kij
kim
intervening
kin
m-1
black
limits
huxley
decompose
subscripts
gerstner
special-purpose
khz
sharpened
event-driven
ken
ker
key
kfm
kde
kda
simulations
emotion
pictures
algorithm
kom
clinical
usual
m/s
atlanta
unknowns
diagonal
hildreth
knn
equivalent
kkt
swept
m.s
m.e
m.a
m.d
m.p
m.i
occupy
fight
occurs
showed
turn
turk
ture
northwest
shibata
rounded
koller
predicted
dashed
mixture
ances
simplest
timing
labels
jth
accent
neighbourhood
accept
expectations
kay
kan
kam
neurophysiological
kai
rarely
length
access
alcove
two-dimensional
mistake
concentrator
neurotransmitters
observe
occlusion
objects
aspect
steering
murphy
ham
han
hal
hat
isomorphic
erroneously
music
calculation
hen
retains
calculating
interior
hid
hip
j-1
hin
type
hij
motions
hit
medicine
j.b
j.c
hla
j.d
j.k
j.j
j.p
j.r
hmc
i/a
gmd
gmb
gly
gls
gle
i.e
responsibility
i-v
neighborhoods
i-o
god
stiffness
challenge
i/o
gmm
gpp
gps
dots
gpc
gpe
gop
dose
swiss
midpoint
gra
defects
sensors
sensory
gtm
extensions
fifty
gsm
third-order
gte
subscript
invoking
switch
gun
swift
preserve
reproduce
swing
israel
iai
predictions
ial
ian
solely
ibl
ibm
id3
artificial
loop
iex
lond
long
ies
iee
ied
ifp
ifs
iff
ife
ifk
ifi
ifa
icy
ics
icl
icm
icc
ice
icd
ica
termination
ids
idm
ida
expands
ipsilateral
growth
iia
iig
iid
door
crosses
iii
iin
iio
k-1
doom
iil
iim
iir
iip
iit
iix
dong
terminating
ijk
crossed
analy
iga
kammen
ihc
reciprocally
lows
route
lowe
parametric
ime
imd
deletions
love
ina
perfectly
inn
inp
lots
int
ins
anand
inf
ine
inh
ing
ini
inl
ink
loud
vanilla
lost
loss
suppresses
k-d
domi
loth
ill
ili
ild
ima
lose
suppressed
ily
ils
rhythms
synapse
loan
hpc
hot
load
co-ordinate
hop
viterbi
hod
hoc
consciousness
hme
field
hmm
impressive
fukushima
hue
round
impression
hss
hsu
hrr
hrn
adults
posner
loga
logo
logs
hut
prasad
hvc
butler
log2
rough
lobe
loca
irreducible
lock
loci
loch
hyv
fft
chance
hypothesize
ffi
fet
fed
fea
feb
subregions
emits
rehearsal
change
distributed
fbr
dynamically
cumulant
distributes
fax
fat
fan
fac
alphabets
kindermann
franklin
labeling
benign
richness
snapshot
sigmoidal
trajectories
sebastian
kauffman
electrically
purkinje
misclassified
eye
exp
exc
silicon
schedule
eta
esp
est
ess
expanded
ett
eve
artifacts
evi
epc
eph
faber
eps
ere
surrounded
erf
era
eqs
eqn
err
ers
erm
erp
ekf
eks
elf
ele
eli
g.i
ell
els
satisfaction
emg
emd
sereno
delusions
eng
end
ent
volcanoes
eog
eod
organs
instabilities
ein
eij
niyogi
gij
gin
i-1
algebraically
expectancy
fills
intervention
sampled
hyperpolarizing
facto
facts
gen
postal
ger
gee
gem
gdr
gds
swain
gcs
practitioners
gcm
gcv
persons
gca
gbf
defibrillators
central
gas
gat
gan
gap
files
resemblance
dure
centred
centres
official
returning
resampled
smeared
duty
friesen
saturating
multipliers
associate
duff
centric
emulation
fur
resent
rosen
angle
lung
saturation
faces
faced
fsm
transduction
ful
fun
ftp
frg
fre
impulse
fsa
fro
fov
fox
resets
fom
fop
fol
fpe
fms
dual
responsible
foa
victor
foe
luna
duce
lund
fld
fll
fli
h.s
fly
fid
fie
fig
fii
fil
fik
fin
h-2
fir
fit
fix
itera
duda
ackley
neutral
existed
ligands
db2
increasing
public
macqueen
dbs
dbt
dbn
immunity
2-dimensional
dac
dag
leibler
das
dap
items
dan
dam
day
dax
dda
emphasize
predictor
dcm
dcs
fruitful
cup
cun
cue
extremum
ctm
cti
ctl
ctd
css
csr
chapel
explaining
portion
cvc
cur
cut
oyster
cyb
applications
miller
focusing
depict
lrta
masked
co-occurrence
mcgill
ambiguity
equipment
ckl
e.g
interest
clx
e.i
cln
cmu
dendritic
cmm
pronounced
cns
cnv
cnl
cnn
cod
coe
cog
con
coo
col
cor
cos
cov
cot
cou
cox
cpd
cpg
cps
cpt
cpu
identities
sweep
crf
cre
extremal
crn
crl
cri
blake
crt
ct2
blair
bartlett
cse
csi
avoid
labelled
ccm
ccd
ccg
cdm
cda
cdf
extremes
cer
ces
corresponds
cen
indirectly
cem
subspaces
blank
cfi
cha
chu
cia
cie
cid
chl
chi
cho
contrasting
dendrites
cij
cii
cir
cis
cit
abnormal
ebd
swings
ebf
ebl
ear
disappearance
anderson
measuring
tunneling
eff
eft
eel
eeg
eee
well-suited
pronunciation
eds
ecg
ece
ecc
indefinitely
eca
likelihoods
ect
dye
wavelengths
westervelt
series
proximate
mathews
remaining
dvc
freitas
dur
selective
lstm
convolution
don
dom
minimax
minimal
dow
dot
dpc
dmp
dmm
sentence
spring
dna
dnf
navigate
attainable
selection
dof
dog
provide
retrieving
sprite
selecting
dsp
dtw
dts
due
elliptical
drf
instruction
dry
dru
dsi
dsn
yamada
delineated
serial
instructive
andersen
der
magnitudes
des
det
dev
deprivation
private
dfa
dec
def
deg
del
den
dep
dft
zipcode
dfg
dls
dlo
div
diw
dim
din
dio
dip
dis
die
dif
dig
dii
proving
relaxation
diff
holding
rhc
rhs
rho
discharges
rgc
rgb
viewing
ret
res
rev
verbs
rfs
mecha
rea
ref
rec
red
reg
cervical
rem
rel
rep
observers
rcr
rcs
invalid
description
rdf
verge
rbs
rbp
tel-aviv
rce
rcc
raw
ray
rao
rap
organize
rat
rau
rbm
supplement
rbf
ran
female
organiza
ram
ral
rpn
shastri
element
ror
rot
rom
ron
roy
row
rob
rod
roc
roi
rnn
rna
rni
foster
rms
surprisingly
rls
disk
rlp
disc
t.j
rli
t-x
t-t
organism
bagging
ripple
dist
briegel
t-2
t-1
rio
rit
rig
rij
rii
rin
ria
ric
32000
rid
declines
rue
run
scenarios
rvm
complexes
rsp
rsm
rsa
rst
rti
rub
cliques
exploratory
rrl
charge
rrt
rrr
sac
sam
san
sat
sar
waibel
corner
bottom-up
euler
nilsson
medin
unobserved
media
poisson
sharpens
shh
shi
lyon
sgn
michie
sgi
italy
sid
sic
bistability
sit
siu
sir
sis
sin
sio
sil
sim
sij
sig
michel
scp
sdf
reaching
sdh
sdm
pushdown
sci
sch
sev
sex
ser
ses
set
prefers
sea
miyamoto
seg
sef
sec
sep
sen
sem
sel
spe
spa
channels
som
avail
son
sor
sok
soc
raised
srn
srm
sri
maximum-likelihood
u.k
spotting
slo
slm
u.s
linearized
slx
sky
slc
competence
overlap
amherst
snr
u23
snn
smo
smc
smd
roots
syn
sys
sym
maxwell
sse
raises
ssa
encounter
ssp
ste
consequential
stg
sta
stb
std
stm
sto
sti
str
sts
specialize
sue
suc
suf
sug
sum
sun
sut
sur
svc
svd
promise
svm
svr
svs
blink
blind
tai
tal
tag
tab
diag
rooms
memorization
tax
tau
tat
tar
tap
tan
tam
tca
sensing
segregate
monolithic
tda
died
environment
closed-loop
dice
satisfactory
descriptive
alzheimer
training
interact
ellipsoids
pdf
pdp
pds
pcs
pda
initialize
pcg
pcc
pcr
pcp
pbr
pca
binocular
harmonies
par
pat
pay
pac
pad
paa
depend
pal
pap
theoretical
pan
phd
phe
harbor
involve
propagates
php
blend
pho
benson
phi
pgo
propagated
pfc
deviates
pfm
products
pen
peo
pes
peg
r.c
pla
r.a
ple
plr
remainder
plp
ply
means
meant
rogers
pm2
gallinari
phy
pid
pic
pii
pij
pin
r-1
pit
pop
poo
presynaptic
pot
pos
pon
pol
variants
ppr
ppl
r/t
pml
r/c
pnn
corpus
psy
inside/outside
pse
psp
pub
pth
accelerations
sinewave
harmonium
pri
pre
pro
five-dimensional
pur
pus
put
subutai
tedious
majority
floating
resort
covariation
feldman
40000
intractability
s&p
anastasio
fidelity
qed
clustered
button
connects
macaque
qik
s.c
s.j
s.a
undesirable
s.s
s-t
queuing
s/n
qos
voronoi
dyadic
drastically
washington
conversion
qrs
verri
oscillations
versa
verse
16x16
real-time
denmark
pyramidal
harder
blasdel
placing
coefficients
multi
reinforcement
neg
nel
no-go
nen
ner
net
neu
inquiry
flannery
mention
nec
ned
murata
ney
medical
ncc
reichardt
heuristically
nal
nar
distant
ripley
trainer
trained
nat
sullivan
predictability
saxophone
solvable
forrest
fictitious
opposition
unsegmented
plasticity
treatment
nxn
roles
vergence
ueda
num
progress
ntn
nts
nth
nsw
preliminary
nsm
nso
nsr
email
nsf
lattice
invoked
nrf
non-stationary
admits
entirety
npm
rolls
npv
nop
nov
nnl
nni
nns
p.j
p.m
nll
p.a
p.e
p.o
deviance
p.s
nls
p-i
nij
nih
nix
p-1
5,000
nil
ogi
ofw
springer-verlag
masson
judiciously
ucsf
oil
submanifold
oid
ucsd
t-test
oja
ocd
ock
ocr
obt
obs
ode
enhancing
strained
environments
ods
oct
odd
odc
oed
manifestation
oft
ofa
destination
oam
oak
oae
masses
obd
nyu
resolving
ucla
nyquist
tuned
handprint
latencies
classify
learnable
chunks
owl
owi
penalties
plausible
tumor
produced
adaptation
produces
thermodynamic
oth
ott
inform
concomitant
ovi
mohawk
farther
ous
falling
groups
opt
ooo
ooi
ooc
oot
ork
orm
orr
ground
ore
ori
osc
ors
1the
simplify
ory
ola
oll
ole
ols
modelling
embed
programme
hwang
pentium
management
longitudinal
dmax
ond
onr
ons
ont
external
descriptors
residuals
depart
lca
lda
lab
meets
lag
unrepresented
lai
lan
lar
lat
law
lay
cable
lba
munro
sparseness
kuo
kth
fiber
m5s
kuh
master
presents
sunspots
loo
loc
log
lpc
los
lot
low
lnp
reveals
sub-units
lob
designed
lnt
designer
summing
n/a
lna
presence
muons
periodicity
lms
ltm
ltp
undertaken
lsi
lta
lse
lsa
dissimilar
lhp
lhs
lhe
milton
concentrates
lgn
concentrated
distinguished
distinguishes
lfa
les
cache
leo
lem
lel
lei
leg
weissman
lee
led
lea
llt
n.y
lld
llg
granularity
lll
llm
lln
n/2
non-orthogonal
n-i
n-n
n-k
n-l
lit
lip
n-2
n-1
lin
lim
liu
lid
lib
lij
lie
fibre
mcgovern
mac
mai
mad
mae
end-to-end
mag
map
mar
mas
mal
man
max
mat
intersections
mcc
mcs
mdp
phoneme
mds
mdl
med
meg
mea
met
mer
mem
mel
men
mfc
mfa
mft
numerical
mfn
venus
brainstem
lui
luo
lus
forcing
lvm
lvl
lwr
gillespie
x-axis
massachusetts
influx
mpc
mog
moc
mod
mon
numerically
mol
mor
mos
rhythmic
mrf
mre
mri
mrt
msa
msd
mse
experimented
mtl
mth
parameters
mst
wolfgang
mtb
subsection
mul
mum
mahadevan
payload
mhz
sparcstation
testable
experimental
min
mil
mir
mis
mit
mix
mia
balancing
mif
mid
mij
mlp
mln
mli
mle
prevalent
mediate
mns
fading
observing
gelfand
mms
mmi
mme
event
corrective
components
mathematics
ljung
leveraging
symplectic
echo
deviations
orders
indicator
border
capability
publicly
thorpe
intrinsically
loosely
pierre
interference
fukumura
security
tilings
cally
snout
suggest
calls
expensive
topographic
calif
postprocessing
continuously
misleading
consuming
stream
centers
coordinate
boards
kendall
develops
benefits
predicate
synchronize
monkeys
traditional
canal
steady-state
returned
three-dimensional
consensus
cheating
correspondence
modifying
programs
abundances
transducers
included
includes
distractors
constitute
vanish
neukirchen
look-ahead
ungrammatical
kanade
affected
evidently
zue
non-constant
standpoint
activity-dependent
edge
users
springer
rhythm
adaline
musculoskeletal
zee
mediating
choices
schematic
physical
congress
zak
greatly
eubank
solved
solver
solves
zhu
ease
tolerate
reconstruct
zij
east
zip
reuse
ears
blood
offered
high-pass
revisited
informational
pedersen
newton
accounts
yon
latest
unifying
block
latent
blobs
reliable
reliably
platt
factorized
well-trained
plate
agonist
2the
yee
parameterization
affecting
extrapolate
yer
yen
capac
angeles
plaut
plays
staging
adjustments
perceiving
fixed
yll
plant
plans
strain
4800
plane
chinese
environ
parents
insight
yil
ample
fixes
greater
strand
place
executes
executed
easy
mackey
categorical
fedorov
natural
outlined
strate
outlines
plaid
cited
tolerant
plain
marginals
xor
mackay
numeric
dumais
removing
profound
nervous
neuroanatomical
evans
sensations
sequel
digitizing
leen
needing
forecasting
diluting
including
xls
xli
lead
leaf
xla
exposition
leak
active
ulus
activa
waterloo
memorizing
xii
xio
bachrach
xia
xie
orienta
folding
polygonal
unclear
synthetic
experiment
action
acting
communicate
tanaka
corridor
strike
wsj
wta
multiplexing
reflected
enabled
utilised
enables
utilises
syntax
oblique
www
ular
wlu
likewise
wmp
exponent
strict
halting
singularities
deleted
bifurcation
wrl
issue
woo
won
uncorrected
missing
missile
wes
wei
web
hillclimbing
whe
substances
wit
wii
wid
win
wim
wil
wik
wij
mission
synthesis
network-based
underestimate
radical
tomaso
champion
detectors
wan
war
belmont
urinalysis
vsv
vss
abruptly
vsi
vtp
vts
vth
candidate
result
credit-card
three-level
excludes
excluded
anatomy
grouping
vin
vii
vij
vie
tilted
doubled
vis
violate
bivariate
kurtosis
x-y
shortest
vme
maximizer
maximizes
electroencephalographic
x10
vmm
korea
maximized
promote
vol
von
vor
vou
vpp
vps
tackled
ver
vet
currency
ven
neurobiology
vec
transactions
vdd
constructs
fulfill
val
mcdonnell
van
var
vat
vas
vax
author
uncommon
elvis
bigger
real-life
statistical
susceptible
primitive
conversely
related
relates
maximising
demodulation
disabling
sniff
usm
littman
usa
usu
currents
oxide
ure
cajal
url
urn
unit
univ
unix
ume
briefly
gathering
uni
uno
robertson
und
bootstrap
straightforwardly
remarkable
remarkably
kandel
ule
microphones
w-1
uht
synchronous
dailey
literature
200,000
spacing
unbounded
anisotropic
laws
scattering
uci
ucl
ues
reproducing
lazy
award
aware
stress
straight
ual
correspondences
conserving
uai
aiming
street
typ
interval
vesicle
lars
larc
exponential
tun
tum
hexagonal
late
vanishingly
extent
extend
utilizing
summary
massaro
multi-path
lags
tra
trl
tri
rasmussen
recommendations
effi
tse
tsp
tst
tss
tth
tti
spiral
ttt
laid
tmg
v/c
tlx
18-22
reader
summand
tnm
land
annotated
lang
lane
tot
toy
tom
ton
tor
top
tpf
lamb
tps
tij
tii
til
tie
tit
tin
tim
tip
tio
tic
spirals
echolocating
edelman
echolocation
tlo
tln
tls
awake
tlw
spirit
tem
ten
tel
causality
ted
radiology
usher
lack
labs
tex
ter
neurotransmitter
thi
thc
tha
dynamic
suffer
library
advice
paradigm
flanking
criticism
quadrant
pittman
connect
optimally
dyer
mating
invertebrate
tanner
entered
4.00
connell
dyna
develop
suffix
sibling
richly
lies
life
nucleotides
4.17
drawings
decades
indexes
friction
early
plied
indexed
link
line
eigenfunctions
maintains
molecule
lime
limb
thickness
yearly
hand-printed
katayama
students
richer
mathis
holmdel
schnitger
kinetic
omohundro
persist
skinner
inhibit
amino
spectroscopy
allowing
rayner
mathur
relearning
intracellular
kinetics
abstract
sophistication
harris
resulting
4-22
decrease
compensatory
set-point
parameterizations
rayleigh
ported
long-term
uran
ural
complements
amplitudes
transformed
transformer
mather
chuang
africa
wire-frame
compared
compares
contradicts
left-right
concerned
calibrated
stewart
georgia
leftward
crabs
waltham
nuclear
notational
layered
final
dimensions
exclude
finds
slopes
4000
finer
fined
meaningful
40.0
revenue
finch
niranjan
heads
finland
4096
writers
eaton
finke
ingredient
naftali
craig
isbell
nucleus
stratum
remap
patrick
shortcut
5-dimensional
narrower
inheritance
user
dynamical
retain
attempted
mappings
left
favour
legs
discrepancies
werblin
lems
choosing
radians
lent
lens
samples
sampler
newman
lend
basford
pling
ussr
leon
usps
earth
relaxes
relaxed
expressions
levy
gerstein
lett
lets
stripe
strips
bagged
personal
string
synchrony
proliferation
vice-versa
accord
gopalakrishnan
relay
relax
np-complete
circular
superimposed
thomas
utah
deduced
metropolis
saunders
pre-computed
favors
classes
selects
stemming
lman
classic
innervate
social
reset
distance
pair-wise
unknown
fictive
circle
femoral
leftmost
slower
slowed
sticks
adopted
kleinfeld
engineer
benveniste
power-law
genuine
mooney
slowly
rests
obstacle
definitions
multiplicative
diagnose
seasonality
behavioural
converter
converted
similarity
actor-network
heart
heard
healthy
harmon
dirichlet
illustration
alters
patrice
developing
heavy
visualized
n-th
beaverton
illustrating
phenomenon
fixation
kahneman
low-resolution
surrounding
utilized
utilizes
top-down
joshua
preferentially
illustrative
brunswick
tomita
emotions
supporting
crick
preventing
llin
unbiased
cares
snake
slaney
cards
encode
pacific
intention
readings
snapp
compensating
neighbors
nonlinearity
carlo
scenes
compensation
standards
register
flatness
brighter
deteriorates
implies
implied
subsequence
stroke
euclidean
carry
distribution
intensities
implements
fired
scalability
fires
resultant
strong
rabbit
writing
nonlinearities
distributing
fukunaga
piriform
lengths
lengthy
sunspot
ikeda
unsolvable
joseph
crete
speed-up
straightforward
recommended
cases
casey
ising
detecting
conduct
correcting
detection
internet
correction
multiplication
lira
000000
lips
lipp
internal
lion
distorted
lins
live
envelopes
list
lisp
hyperplanes
chewing
reverse
elman
fellowship
attachment
ambitious
neighbour
zero-mean
massive
kerns
relies
relied
fewer
minimize
visually
shortcoming
decorrelation
isis
ference
manufacturing
britten
codebook
eigenfunction
loaded
tation
iris
retrain
contours
backward
complexity
operates
operated
rockwell
minimise
bicycle
morphology
snakes
edition
communicating
semantically
comprise
audio
communication
shaded
disordered
30,000
larger
exemplified
equity
gibson
compositionality
induces
inducer
induced
fleischer
20,000
wurtz
recording
allocating
assigns
ergodicity
pyloric
engineering
allocation
popularity
counter-examples
discretization
rules
ruled
manual
contractions
rhesus
subcortical
contamination
calcium
landy
appearances
biomedical
locking
effectiveness
annual
prohibitively
neuro
modifications
tunable
ambient
quadratic
reber
parabolic
imagine
imaging
conventionally
shadow
stepping
alcohol
establishes
carpenter
sesame
established
contribute
statistically
exhibited
totally
lamme
grandmother
troller
predicting
isolated
degrade
diameters
operator
exhaustively
resorting
prediction
newly
reals
realm
texts
predictive
board
item
iter
conservation
preset
ready
slack
reads
events
bulbar
messenger
conservative
exemplar
reach
ison
react
lanes
lange
hobson
slabs
generators
disconnected
evenly
pushes
bergman
nectar
theoretically
george
pushed
shatter
finely
ables
perturbative
multi-time
discounted
inside
errors
echoes
finest
volcano
off-diagonal
perturbation
kenji
generalizing
inst
requirements
intl
inte
lexicon
variances
yuille
comprehensive
inns
rhodes
classifying
alter
init
rankings
ferra
backscatter
info
altos
ined
inen
3-dimensional
techniques
options
represents
ings
transaction
inal
lexical
alignment
indi
inde
nonsingular
consisting
typically
geometric
intuitions
occasionally
finder
compress
carefully
interpretable
recurrently
tractable
evaluations
obeys
recover
dissociation
parameterize
standard
divergence
danger
edwards
interpolate
extraneous
acoustics
views
one-step
cursor
ensuring
wanted
frequently
algebra
kelso
emphasized
brainard
emphasizes
notoriously
restrict
lappe
imax
disturbances
interpolant
vides
video
extract
gordon
computational
large
schematically
lesioned
abstraction
compliant
curves
anterior
goodman
curved
32-bit
occured
equate
predictors
quan
qual
scrambled
profitability
abbreviated
ipsp
ques
owing
alvis
renewal
trevor
mirror
return
framework
cameras
signatures
universe
imagery
weightings
polyhedral
replaces
replaced
staircase
enforcement
functionality
elbow
multi-dimensional
daniel
ious
laser
geometry
adjustment
harmony
dollars
insert
norwell
topological
virtue
highway
bottlenecks
ions
statistic
wallace
comparative
bindings
insect
gratings
ramachandran
reformulated
text-to-speech
larry
specialization
departments
encodings
normalising
t-cell
danish
portland
quality
waterhouse
non-local
2100
labor
goodwin
steeper
non-gaussian
abrash
advantage
transmitters
elect
support
suppose
tests
erlbaum
decoupled
sub-optimal
self-organized
registers
miall
restarts
ergodic
garzon
vecchi
weizmann
insure
confirming
swimming
interpreting
implausible
lacks
inadequate
predicates
robust
goal-directed
devising
manifolds
allocated
allocates
corti
corre
2200
koffka
22.5
basilar
deeper
packages
naturalistic
yield
chomsky
terry
epochs
interacts
bringing
records
5-3-1
pointing
deeply
pieces
cyber
tuning
haykin
high-precision
photoreceptors
lucia
memorandum
dropped
marginalizing
lucky
relate
perceptrons
terms
terns
horizon
discontinuity
quadrants
iiii
dataflow
multichannel
generalisation
23.5
davies
queensland
worst-case
flowing
knowledge
analyser
analysed
analyses
decaying
distinguish
streams
ilar
analysis
landscape
veloso
knowing
deemed
creature
flowers
cycle
susceptibility
stuart
useless
intrusion
retina
acoustic
schedules
scheduler
scheduled
micro
robustly
unreliable
mapping
extreme
extrema
kelly
resampling
dictates
upper
discontinuities
dictated
kasdan
2006
2007
nondecreasing
valleys
gabriel
automata
automate
20.0
faster
non-linearly
audio-visual
2000
attentional
normal
drain
analytic
houston
myocardial
draft
approach
manner
enclosed
inclusive
correct
fan-out
inertia
information-theoretic
twofold
account
skilled
coexist
2048
clipping
informatique
kanerva
circularly
inclusion
confusions
nonparametric
prescription
vowels
slice
manifold
non-linearity
signal
optimistic
phones
journal
draws
drawn
separate
rescaling
evolutionary
plugging
costs
superset
signed
pyramid
gestalt
conserve
specific
aerospace
codewords
shearing
viola
passengers
eling
dissipated
adapts
texas
universal
session
trimmed
houghton
luminosity
electrodes
universit
dickinson
cowan
feedback
topologically
germany
leaving
non-linear
slant
congruent
graph-based
exchange
deriving
purposes
slate
subnets
slave
nonclassical
higher
2.15
2.25
tokamak
comparable
2.10
letters
14,000
knowledge-based
2.00
johnson
slight
2.50
recce
multi-task
sessions
overfitting
hypersphere
recep
standing
count
perspectives
speeding
partition
locomotion
musical
pointers
network
laham
similarly
growing
alterations
recon
anticipate
presidential
bucket
codeword
hirayama
tracking
cover
ieee
2.75
2.72
cochlear
highly
recur
higher-order
operands
robots
academic
refer
parameterized
comfort
trackers
sentences
stimulus
quadrature
appearance
thermal
dangerous
anomaly
speedup
uninformative
intricate
spectrally
semenov
characteristic
subscriber
rigorous
letting
correctness
values
matrices
valued
cylinder
uphill
forgeries
automat
resulted
laird
telecommunications
chaotic
rebound
effectively
couple
symposium
ditions
guaranteeing
sleep
well-known
hayashi
pollard
discriminations
accepting
educational
proposals
straight-forward
counts
wright
vilis
williams
pollack
amari
fletcher
discontinuous
spotlight
pushing
losses
bickel
disambiguate
sinusoid
cycles
extensively
valuable
uniformity
degrees
cyclic
laborious
slope
decrement
evolution
european
steady
impractical
interconnects
doubly
align
double
deduce
hewlett-packard
1800
alike
rock
scent
zucker
scene
road
multi-step
progresses
drawbacks
serotonin
rods
maximisation
stretched
setpoint
facial
printed
routinely
regions
singapore
pursue
consecutively
strength
pipeline
conscience
slows
antagonistic
frustrated
slots
diagram
interpretations
equality
searches
facing
searched
visit
memorize
began
prehensile
1700
represent
atmospheric
17.5
insulin
single-cell
inactivation
terminate
elicited
yariv
prohibitive
off-chip
enabling
plenum
15th
doucet
eigenvalues
sloan
tailored
serially
memories
weaknesses
norris
investigators
motivation
prototype
apriori
coins
solutions
apical
influencing
terminals
introductory
ical
alkon
snapshots
interesting
upwards
electronic
nicoll
16.0
16.4
trimming
satisfactorily
1600
chapter
showing
listed
square-root
edinburgh
anneal
studying
begun
conflicting
resonator
schmitt
u.s.a
investments
hermitian
perceptually
13th
percept
stylistic
rlds
percent
identified
arnold
cholesterol
identifies
pairs
retrieval
retraining
paint
retrieves
retrieved
university
begin
ghosh
ghost
continued
hopcroft
miles
lower-dimensional
ekman
continues
idea
superior
15.7
15.2
15.0
shawe-taylor
expose
focussed
continual
prolonged
mushroom
routing
routine
frequency
treats
projected
promising
memory
color
cooperative
captor
settling
1500
situation
iden
fluctuation
commands
cooperation
fluctuating
12th
continuum
wasteful
icsi
ambiguous
rivalry
decreasing
reduce
emitted
richards
emitter
meiosis
spotter
teich
schmidt
single-lane
embodies
object
occupancy
embodied
biological
experiments
beams
technological
14.3
14.6
14.7
display
14.0
14.1
revised
feldkamp
solomon
1400
carried
scans
carries
mechanical
carrier
compo
redundancy
smallest
non-negative
midst
ellipses
analyzed
analyzer
analyzes
beats
holistic
scale
scalp
bears
asymmetries
written
axis-aligned
albrecht
leveraged
leverages
graceful
industry
11th
approached
approaches
pacemaker
beads
tackle
collaterals
tenth
acknowledgements
symmetric
comer
resistive
attribute
combi
vision
tense
athena
centering
rive
conic
uttered
non-metric
trouble
1300
transmitting
weimann
13.0
13.3
13.9
13.4
switching
13.5
13.6
13.7
knill
understanding
recoding
visits
chapman
paragraph
downhill
elliptic
ring
annals
rion
const
pertinent
manifest
non-zero
inverse
detailed
graphically
multi-class
grossberg
risk
rise
ritz
plotting
ries
vestibular
angiotensin
neurology
markedly
diverges
passenger
proximal
deangelis
functions
indispensable
displacements
correspond
giving
polynomials
wander
condi
fuzziness
1250
multiplying
cones
rich
asymmetric
psychology
prefix
lemmon
rainfall
strengthened
vital
12.0
12.4
12.5
12.8
12.7
prefer
a-si
photo
1200
cooke
visiting
indecision
frequent
ovarian
yaser
maunsell
marshall
yellow
agreements
vitro
tells
triggering
1100
cross-correlation
relaxing
stopped
1129
low-power
1111
compiled
compiler
phone
1140
1142
highest
definition
1159
regimes
1161
accounting
stringent
15000
marginalization
investigating
11.7
11.3
11.2
11.5
11.4
brackets
disciplines
markovian
british
pages
telling
investigation
vocalization
participating
open-loop
1080
1088
1086
1079
simmons
leading
labelling
1076
dition
1069
1063
1062
1060
1058
1059
instructions
lemmas
alternative
multilayer
summation
undefined
intimately
1003
1004
1001
1002
1007
1008
1005
1006
tempo
1009
1010
insures
alert
concrete
adjusted
1000
10.5
10.0
10.9
10.7
10.8
10-2
10-3
10-4
10-5
10-1
triangles
functional
1048
1046
1045
1049
1050
uninformed
alternating
lazzaro
1035
1034
1037
1036
1040
1041
1042
1044
1028
alternation
1026
1025
1024
1023
1032
1033
1030
conjecture
1019
1018
1013
1012
1014
1020
1021
1022
generation
junctions
ignore
taking
exception
policies
reza
olivary
generative
regularized
reconstructions
scattered
10,000
knerr
superposition
manipulate
generating
bernhard
designers
platforms
significant
graduate
reliance
performance
delivered
optimizes
optimizer
optimized
signaling
function
boundaries
robert
resonance
teach
huberman
digit
infra-red
handling
lasts
departs
blocks
geoffrey
noises
lasso
analogical
coarse
isometric
alpha
outlier
pruned
v-shaped
william
score
tachycardia
hypersurface
scott
garrison
conventional
scope
suffered
forwards
real
gaussian
read
rear
remained
regu
happen
shattered
intersects
reed
rela
lated
latch
masking
rein
reid
temporal
interrelated
rent
rely
retinal
retinas
reso
complicate
rivest
rest
resp
vector
gesture
interested
fitzpatrick
illus
linearity
hypothesized
pendent
minnesota
adaptive
supported
diagrams
monotonicity
indications
rubin
immediately
adaption
triggered
naming
adapting
lures
outline
physiology
persistence
connection
stretch
exposure
connecting
thirdly
trivially
supplying
explicit
puddle
prescribed
hancock
acetylcholine
grammatical
phase
nicely
appeared
diego
topics
prioritized
playing
panels
psychophysics
alternately
characterization
colliculus
seconds
subfields
context-specific
microscopic
increasingly
linearize
structurally
coded
introns
mackintosh
clamping
borders
codes
coder
syllabic
ottawa
jenkins
designing
resistant
millisecond
b-spline
layer
premotor
syllable
stefan
rank
rand
ramp
codon
newell
two-lane
rare
nelson
superscript
arrangement
rate
rats
vertebrate
implementation
quantizer
quantized
dotted
mimic
chemosensory
representational
interactions
deformation
teeth
probable
steels
cascaded
confidence
rotational
shoulder
discriminating
search
discrimination
february
desired
clique
larson
monitors
comparator
proposes
proposed
resistances
discriminative
consecutive
digitally
machines
proposal
generically
commanded
conversations
ragg
drawback
factor
inhibits
100,000
minor
served
allen
rall
uncorrelated
knight
hurlbert
rail
backups
rain
html
server
serves
minch
housing
sub-classes
oversampling
diseases
mined
race
conditional
racy
jeremy
conditioned
raam
larsen
mislabeled
moderate
resented
vries
member
introduces
nerve
introduced
specimens
formulated
evidence
corinna
falsely
presentations
oliver
http
trigonometric
farrell
minus
aircraft
low-density
automatically
manage
hunt
reviewing
traverse
fitting
harmful
frontier
vibration
chicago
hull
microelectronics
calculated
huff
huge
impulses
aloud
anthony
postdoctoral
calculates
henderson
introduction
exists
unlike
outlook
mobile
19.3
recalculated
chernoff
determine
routers
depression
simplicity
revealing
ideas
ideal
players
classification
earliest
fourth-order
billiard
hush
hurt
1970
1971
1972
1973
1974
1975
1976
1977
1978
1979
northeastern
signature
1990
1982
1983
1980
1981
1986
1987
1984
1985
independence
1988
1989
trends
steepest
1995
1996
1997
1998
1991
1992
1993
1994
1999
gorman
extrapolation
conflicts
lagrangians
1900
tumors
single-unit
acids
1938
1947
1949
1948
researchers
outperform
1940
1943
1959
1958
1957
1956
1955
1954
1953
1952
1951
1950
cohen
1967
1966
1969
1968
1963
1962
1965
1964
1961
1960
mitsubishi
constructive
termed
proprioceptive
cutting
elapsed
entity
belongs
attractor
entire
tolerance
constructing
discriminatory
construction
cumulants
responding
recall
passively
genome
stephen
indian
teachers
press
michigan
abound
stereo
subtract
giant
working
attracted
leaning
milgram
visual
single-step
weber
restrictions
navigational
terman
high-resolution
confirms
modulate
restructuring
construct
bernasconi
diode
learnings
ignores
confirmed
funds
unconstrained
succeeds
segmentation
emerging
exhibiting
recalled
duration
reversing
reused
associating
decrements
association
bursts
morphogenesis
speaking
associative
gibbs
latched
supercomputer
latches
custom
succeed
cylindrical
state-of-the-art
seasonal
hungry
define
morning
processes
processed
assumptions
damaged
filtering
columbia
speakers
preserving
efficiency
motivations
primary
primate
negatively
portrayed
wedge
cancelling
separations
well-established
surfaces
sorted
norms
pre-existing
chellappa
physiological
covariance
july
shifts
jump
jung
june
committees
north
recurrent
columbus
noted
kluwer
saha
trial-and-error
sagi
safe
heidelberg
notes
optimality
schwenk
statistics
edges
leverage
jude
judd
saad
small
necessity
teaching
laboratoire
catastrophic
smart
viable
rendered
syllables
denote
weeks
providing
dilemma
processor
associations
contact
haven
distal
concentrators
collinear
30000
multigrid
attempts
anders
comparing
secondary
token
profiles
behavioral
nouns
education
sumida
wireless
approx
freeze
notations
concentrating
concentration
improvement
obscure
barbara
permits
california
plausibility
tissue
cancellation
elevation
plateaus
quickly
inaccuracies
dennis
explains
freely
pointwise
designate
beymer
aggressive
achievement
designs
quence
initialised
shimon
isomorphism
prism
preprocessor
warland
sublinear
rotate
impose
pending
confined
prime
converge
addressing
quicker
1,2,3
sparrow
location
prior
tokyo
hayes
employs
locating
mixed
application
print
blakemore
resistance
price
uniformly
referring
varying
conference
oscillates
passive
fernando
decomposes
imputation
ryan
sydney
decomposed
lookahead
unstable
information
occasional
jumping
terminates
caption
terminated
non-road
passing
informative
sparser
reversals
user-specified
seemingly
releases
deteriorate
reconstructed
exogenous
released
offset
conditionally
postulate
quinlan
articles
defect
oscillator
potentially
lucent
fronts
registration
abilities
undergoes
graphic
converse
suits
diffusion
two-level
radially
memoryless
coincidence
bethesda
remove
remote
converts
suite
neurons
misses
impedances
missed
causing
berry
collectively
unambiguously
topical
fully
accessing
diffusive
anymore
undesired
implying
schwarz
occluding
catalog
content
repairs
behaviours
principles
resting
principled
disagrees
shifting
depicted
spartan
binaural
denker
transferring
parameter
summed
context
summer
factoring
inequalities
invertible
john
suitability
ventral
splice
business
humphreys
jobs
identify
spline
television
multiclass
ferragamo
factorize
formulations
super
32.8
structured
singularity
structures
eliminate
handicapped
remain
scientist
rejections
saccade
bisection
acute
alarm
hierarchical
exhibits
jose
snyder
stimulations
remark
structural
alamos
hyper
collateral
cassandra
jour
easiest
simoncelli
unlearning
harmonizing
huffman
actor
berliner
rejected
confident
scholarship
inaccurate
hunter
squared
squares
infinite-dimensional
activ
taught
unconscious
harvard
michalski
accepts
runs
fundamentally
albus
efforts
kanazawa
ruth
2.2.1
brunel
shrink
inaccuracy
mathematical
denominator
paradigms
rule
conjuncts
atiya
stabilized
nakashima
segmental
twinn
iterative
feedforward
suffers
stretching
segmented
locative
gained
translate
iteration
orderings
iterating
weakened
behaves
fortran
behaved
absent
3500
welch
mismatch
spending
hochberg
superiority
stabilizes
pitch
wells
instant
image
domain
equalizers
deficient
driving
insensitivity
redundancies
contributed
hands
contributes
correlations
schizophrenia
schizophrenic
alteration
calabrese
pitts
distinctiveness
bench
international
non-separable
accents
hessian
smith
factorial
splits
handbook
ation
non-rigid
overt
3600
priming
consequent
indexing
jersey
imaged
depended
images
attempting
stereograms
roll
role
pratt
defender
dirac
rois
markets
root
height
markers
rons
protocols
room
subtrees
direc
steven
pearson
attributed
rome
attributes
3.10
roth
3.08
rota
ross
3.00
rose
sentation
3.25
rows
playback
conveyed
doctoral
zohary
remedy
knots
predefined
capacitor
elimination
exposed
denver
burges
multiscale
resistors
eliminating
parentheses
governing
introducing
transparent
typing
depicts
stimulation
non-terminal
qualities
mathematically
stimulating
multicollinearity
decline
chromatic
knowl
southeast
greatest
lobster
pertaining
passage
today
experience
employed
enters
radford
annealed
lifetimes
parenthesis
simplistic
technische
happy
wadsworth
demonstrate
covered
beled
belew
workers
finitely
amplifying
psyche
auxiliary
motorola
patient
long-range
economics
extending
departure
30.0
axonal
tween
3000
melody
restart
dichotomy
replicas
segment
smear
localist
tradeoff
otolith
fault-tolerance
locality
e-mail
synergistic
supplies
kingdom
supplied
addison
localize
condition
federal
threshold
suffice
pixel
initialized
initializes
kullback
off-line
implications
degraded
degrades
begins
aligned
weiss
dialogues
hyperspectral
approximates
approximated
physik
cessation
np-hard
autistic
idealized
essence
harry
weigh
fifteen
technical
intracortical
burden
fundamentals
identity
surviving
bradtke
pronounce
symbol
suppl
gainesville
remembered
attended
advances
advanced
16000
spec
continuous-time
multiples
averaging
zone
cheng
spca
koenig
span
summations
assigned
pinna
neural
graphical
jfet
consequences
literals
cross-sectional
tutorial
chess
ellipsoid
omitted
fluid
sour
regeneration
cheap
sort
candidates
insertions
bastian
song
sonn
penalize
sons
drive
sole
marbach
combination
soma
atoms
skaggs
fingers
soil
pines
incurs
breaks
temporary
check
neuron
soft
recruited
mellon
lesser
geometrically
somatic
pursuing
widening
soda
contralateral
kirchoff
finite-dimensional
instantaneous
terrain
forsyth
urbana
convenience
konig
charging
accuracy
study
affect
stuck
adequately
unimodal
snow
waxman
holograms
combined
actions
combines
contacts
esprit
previously
elaborate
subsystem
consolidation
accurate
confidences
zorn
psych
displays
office
predetermined
offers
pendulum
mistakes
durations
mistaken
alarms
sequence
subunits
non-redundant
pilot
transformation
icann
decisions
horizontal
tracked
tracker
empirically
mccloskey
discus
concisely
simplifying
incidentally
sram
environmental
attentive
surprise
unequal
akers
presenting
strat
taylor
discussions
fields
control
semi-definite
multi-level
looping
attention
primitives
tables
shannon
antagonist
radius
snowbird
denoted
nominal
rotationally
strip
denotes
slices
tower
desimone
jeff
breast
cascading
capture
unipolar
holons
rectum
transforming
pursuit
noise-induced
reveal
tours
combining
pursued
drift
radial
one-shot
meanings
spot
high-level
outward
closed-form
context-dependent
reinforce
negated
optical
misfit
competing
systematically
gardner
time-varying
essay
spie
singleton
strategic
thresholding
spin
rectal
essen
acceptor
rumelhart
developed
generalised
conversation
sophisticated
label
fuzzy
injected
absorption
handelman
adjust
25.6
defining
nonterminal
shavlik
surveillance
2500
momentum
wiring
females
pipelines
pipelined
behave
broader
comparatively
chips
jain
picking
time-scales
chine
oxidase
misery
presented
shared
physiol
shares
mcgraw-hill
particles
workspace
child
forecast
device
arrives
attenuation
feulner
augmenting
arrived
physica
physics
valley
digitized
performs
sharpe
broadly
revise
skip
skin
sharma
chiel
chien
chief
presently
dream
jane
trough
chick
address
craven
fundamental
skew
outflow
constrained
losing
mcreynolds
smola
compartmental
style
fragment
arrival
creating
creation
conjectured
nodes
herman
hager
2400
24.7
nodal
keller
constraints
proceeding
monocular
eigenspace
size
salesman
definite
quarterly
planners
rapidly
acyclic
perceptual
program
identi
transcriptions
outer
atlas
photon
incorporate
perceive
rejects
elegans
elegant
semantic
off-center
randomness
credibility
preferably
preferable
untuned
frameworks
parasitic
building
checks
hairs
groupings
entities
prosodic
hierarchies
shapes
modified
failure
thereof
shaped
modifies
holmes
imbert
distinguishable
freund
recurrence
columnar
enclosing
reflexive
enable
overcoming
random-access
mixtures
slow
universality
review
equations
karlsruhe
adapt
impairment
tunley
adams
pineda
jack
maximizing
clocked
haifa
infinitesimal
flops
floor
holler
older
temporally
perceptron
bradley
inventory
histories
centre
extracellular
memorized
2554
needed
center
clauses
flows
record
brevity
slip
endowed
slit
impact
slot
inferred
grounded
velocities
priority
andrew
distributions
autoregressive
querying
trivial
decision
writer
finger
surveys
elevated
n-channel
cutoff
exclusively
attempt
imply
topic
constantly
dendrite
contributing
noisy
computations
noise
contribution
harmonic
bounding
moving
optimum
virtualization
talker
dimension
recipe
apparent
kindly
sets
branching
intersect
percepts
rounding
serc
jelinek
zhao
optimal
piece
transducer
ology
barnard
absence
ensemble
lattices
abrupt
recovery
recovers
servan-schreiber
behaviors
probe
shamma
proba
girolami
goldfish
summit
tools
winning
behaviour
shamir
acknowledgment
sian
siam
laplace
topographically
histogram
side
picks
visible
eigenvector
embedding
constants
sign
zhou
dayan
tuckwell
exercise
1,000
diagnostic
hopfield
prone
proof
algebraic
pomerleau
capacitances
added
adder
proto
objectives
consistent
interruption
interaural
koike
prove
tonal
proxy
site
situ
acknowledgments
sive
morphing
reachable
equals
planning
tonic
simi
simu
saccadic
simd
sill
sils
introduce
raising
sion
sinh
sink
sinc
sine
sing
movies
saccades
tones
pickles
shaw
projects
promises
rewarding
shah
tommi
grammars
shed
spreading
occam
lesion
studies
studied
flipped
meador
mountcastle
visualizing
amsterdam
elevator
asynchronous
originating
reasons
pathway
peterson
afford
finite
finish
smyth
ginzburg
shut
cerebral
momentary
troyer
ship
sections
plotted
hyperparameters
devise
shop
show
shot
left-hand
pinhole
realization
occur
drucker
olive
minimization
pathways
texture
differentiate
touch
diction
justify
leaming
simulator
stimuli
population
permitted
histograms
navigating
interestingly
finkel
bernstein
restore
darpa
fabricated
technique
chaos
chase
picked
brownian
chart
realizing
lambert
navigation
experimenting
pacemakers
infrared
fragments
gions
scan
chang
accepted
penner
endpoint
emergent
adaptability
roberts
chain
16-bit
epenthesis
tversky
redundant
sub-unit
dropping
total
photograph
post-processing
structuring
sara
sand
semicircular
salk
flies
sake
restoration
operand
french
carolina
depolarized
altering
flips
dollar
save
saul
sato
operate
discriminator
imperfect
sary
interleaved
rockland
signal-to-noise
textual
discriminated
survive
javier
discriminates
cellular
contour
inherent
billion
transient
deformations
mean-field
simulated
classified
simulates
affine
garcia
touching
drops
classifier
classifies
disorders
potentiation
encouraged
dates
constancy
recognise
encourages
recent
eptesicus
generalizes
spacecraft
numerator
smooth
recognize
ensure
utility
terminal
scale-invariant
weakness
feature-based
non-overlapping
membrane
winners
worthwhile
supremum
generalized
usefully
kinase
grammaticality
datum
unsuitable
constrain
leslie
torus
responsive
topologies
torso
translation-invariant
bandit
syntactic
secs
sect
potentiated
seed
holden
seek
torre
sees
utilize
switches
capacity
uncertain
switched
imbedded
semi
periodic
diagonalization
truncating
send
mccormick
utilities
wavelength
sepa
sept
aerial
gaining
singularly
pseudo
origins
wisconsin
kevin
unfamiliar
inferior
manifested
schemas
thresholds
confirmation
development
fused
schemes
brownlow
giles
jacobi
telecom
jacobs
fine-tune
equating
time-dependent
equation
endpoints
lippmann
student
physically
crosstalk
perception
gilks
bumping
prune
success
dipartimento
silverman
david
reaction
hospitality
version
reacting
kinematic
reactive
davis
decisive
sired
traversing
possibly
answer
irrespective
composition
spence
ossicles
brightness
spends
shadows
intuitively
decomposable
rewrite
increment
single
10x10
bradford
muscles
singly
slicing
contract
technion
opti
watson
acoustically
diagonalized
scientific
advance
samad
differentiating
contrary
normalized
zeus
desirable
argued
argues
deviation
eeprom
advantages
differentiation
matters
reconstructing
saturate
ranking
normalizes
dragonfly
patterned
contrast
hearing
sciatic
symmetry
golden
unnecessarily
target
reconstruction
demonstrated
multitask
almeida
intractable
stein
mozer
blinks
learners
knudsen
oral
imitation
demonstrates
stems
reformulation
stent
configured
steps
spherically
summarised
imitating
results
steve
skipping
wattle
opportunities
abeles
probed
probes
neurological
white
singer
descent
descend
approximations
listeners
orig
initializing
stocks
vestibulo-ocular
steep
steel
steer
theta
linearly
steinmetz
satiation
mayhew
kronecker
stabilization
spectrum
pooling
tested
sites
scaling
0.0001
insights
printing
predominantly
compute
claiborne
spectral
cascode
possibility
arrhythmias
olson
devised
ordered
laplacian
ception
glucose
pairings
chopping
critically
rationale
recordings
theme
preprint
scheduling
orderly
gastric
excellent
sustained
battery
gies
transfers
suggestive
recovered
sub-models
gill
informa
establishment
suggestion
adjacency
rodney
technology
winner
virginia
give
fogelman
multi-layer
baltimore
mexico
generality
appears
simplifications
generalise
generalize
applies
bibliography
smoothness
open
oper
oped
truncate
winnow
suggesting
walker
microns
importance
3-bit
refers
representable
applied
gish
distinction
mazes
salzberg
diverge
aaai
lacking
heterogeneous
gradual
mandelbrot
highlights
myers
diverse
obvious
limiting
lancaster
publications
identifying
normalizing
thinks
reflex
conserved
bipolar
things
iterated
bundle
iterates
learning
arguments
stays
band-limited
glue
regularization
ontario
originally
effect
specially
zard
stark
sacrifice
start
stars
readily
reading
figure-ground
surprising
stats
state
multiresolution
psychological
recherche
boundary
oval
wright-patterson
stant
stand
refraction
operation
operating
austria
odors
decays
remains
uncover
machine
comparison
stack
i-ii
stage
staff
deciding
receive
ably
pre-processing
nakayama
staggered
coronary
clayton
notice
pentland
familiar
demonstrating
charges
i-th
charged
populations
demonstration
subtracts
acad
arrhythmia
robotics
buckland
asilomar
evolves
evolved
precedence
constraining
profit
penalizing
decade
families
repeatable
kaufman
notion
comprehensibility
accu
noting
piscataway
factors
autocorrelation
achr
acid
sufficient
sixth
probability
functioning
winter
karpinski
volker
acts
actu
publish
acta
caltech
dividing
strengths
reductions
ospf
domains
excessive
divisions
goal
traveling
anisotropy
believed
near-optimal
unfolding
broadband
adds
addi
adap
adam
nondeterministic
tractability
borrowed
pulvinar
regressions
chemistry
splitting
replicate
analogously
strokes
fulfilled
collapses
collapsed
context-sensitive
chooses
santa
regressor
dimensionality
blending
readers
overestimates
volatile
corruption
survival
imposed
imposes
consistently
emerge
gulati
distinctive
propose
adrian
pulling
refine
trigger
summarizes
summarized
bernoulli
forgery
parsimonious
transform
johnston
sizes
unions
sized
lewicki
speech
logarithm
letterforms
normalize
quantum
mance
dominate
neighbours
edgeworth
unrelated
peculiar
dominant
cyclopean
speeds
realizations
payoffs
enormous
thompson
extinction
normality
proceedings
moffett
high-low
algorithmic
permanently
ineffective
thirty
adaboost
asymptote
97.5
removal
saved
recognizing
incoherent
universities
stock
stoch
bearing
trainable
ohio
quantal
broken
dekker
august
gabbiani
decent
slightly
spheres
subproblem
disoriented
aged
optional
ages
lowpass
individuals
logarithmically
read-out
suitable
counteract
experienced
suitably
experiences
heterogeneity
simultaneous
targeted
illustrated
radically
illustrates
compound
glomerulus
climbing
assess
excessively
assert
clarke
toronto
canada
jeffrey
assets
sauer
96.3
palmer
america
triangular
canals
expressed
expresses
polynomial-time
isolation
parsing
incompatible
elasticity
voltage-dependent
unique
inhomogeneous
partitions
glomerular
precisely
envelope
resemble
legitimate
unmodified
janus
consistency
chronic
derivatives
95.9
95.4
95.5
allocate
gave
sensitivity
roychowdhury
janet
posture
large-scale
copenhagen
hold-out
specht
gaze
clause
gaps
fine-grain
paramagnetic
gang
logically
gaus
gallager
gate
gary
stork
store
storm
story
koistinen
geisel
satisfy
instances
erkki
stops
current
gain
goldstein
queried
stone
gait
aims
queries
tempering
game
methodology
walter
spreads
durbin
frustration
bodies
x-ray
surround
gauss
sequences
sequencer
t-distribution
aids
electrical
removes
sarsa
removed
composed
nearby
infor
attractions
cancer
cancel
james
continually
scalars
detects
present
infer
programmable
systems
operators
gauge
shadmehr
prevents
march
remarks
scientists
laboratory
recognizers
weighing
perpendicular
maron
omit
marko
marks
handwritten
mario
investment
daily
gated
equivariant
smoothing
comprises
comprised
coherently
nserc
contingent
interpolator
combinatorics
combinatorial
prentice-hall
unambiguous
permission
decide
gates
multiplied
akin
multiplies
unify
multiplier
sayed
erroneous
92.9
cascade
moment
phonetics
equilibria
muesli
masks
shadowing
stick
mason
shattering
yves
biologically
robustness
index
marrs
listening
propulsion
trigram
four-bit
realistic
units
unity
time-delayed
cricket
union
united
kriging
functionals
mathe
reorganization
alex
mates
mateo
algo
voiceless
gateway
widespread
seismic
ally
uniquely
precision
formulae
deweese
lumped
optoelectronic
sciences
formulas
alon
jaakkola
60,000
gyroscope
howard
randomly
alto
vocabulary
neglected
yuan
schedulers
generalizations
multi-scale
architectures
render
7-bit
registered
restarted
mated
alan
match
shading
garey
matan
architectural
hopping
patterson
amin
amir
amit
infrequently
volume
interpolated
interpolates
funded
gelb
olds
gent
gene
animals
powerful
composite
hashing
henceforth
ampa
gest
individual
unsatisfactory
9000
gerald
gert
opportunity
inbar
siegel
merzenich
composing
numbers
minimising
amap
nettalk
amax
out-of-sample
constituents
ames
symbolics
amer
contaminated
choppers
grossman
campbell
directionally
processors
materials
ports
pdfs
wheeler
fuel
finished
replication
eigen
pavlovian
deviate
fayyad
trading
focuses
replicating
monday
posed
focused
chaussee
designated
pre-image
bowman
appeal
fuse
poses
nakano
cartoon
somatosensory
heaviside
angular
landmarks
bilateral
adiabatic
arrange
whitaker
cerebellum
concerns
unresolved
func
fund
poste
rewarded
adjacent
dissimilarities
full
sparsely
ands
asked
ance
background
anal
homotopy
andy
cerebellar
approximate
interconnectivity
calculations
right-hand
derivations
rule-based
incremental
programmability
torque
deficiencies
anti
arrivals
intrinsic
deterioration
unable
worthy
infinity
abundant
birmingham
cease
infinite
calculus
choose
jerusalem
failed
fine-grained
potts
translated
transcription
translates
average-case
coincides
anns
annu
torrey
alternatives
anna
gaussians
literal
substantial
hyperpolarized
robotic
imbalance
connectivity
klaus
pays
mapped
conceivably
stationarity
conceivable
linguistics
chrisman
paul
conceptual
considered
path
past
concepts
pass
pricing
devices
irrelevant
gamma
american
mcclelland
valiant
localization
incremented
extended
polarities
games
oxford
lemma
reversible
model-based
stereopsis
legendre
complement
magic
herrmann
independent
describes
engines
flavor
reticular
lafayette
apex
lends
favored
questions
varies
repulsive
on-board
varied
albuquerque
interpolation
bracket
trailing
interpolating
limitations
diamond
decomposition
chords
timestep
scratch
park
pare
para
part
lapses
parr
effort
palm
input
palo
50000
pals
handwriting
pami
unconditional
neuroscience
consult
avoided
examine
munich
page
principe
pair
pain
paid
propel
pace
pack
maryland
proper
eytan
appl
pact
instantiation
error
synchronicity
multistep
spoken
insects
processing
arbitrarily
hansel
hansen
atomic
forschungsgemeinschaft
asme
phil
kaufmann
linkage
one-sided
major
grammar
appealing
astc
correlator
asso
formalized
absorbed
strabismus
time-averaged
hilbert
manageable
places
pools
legal
sparsity
leaves
shultz
phys
polynomially
agencies
controls
hanson
arch
ordinary
arcs
voltage
electromagnetic
streaming
unfolded
hypotheses
arbi
divergences
proves
proven
considerable
argi
proved
considerably
area
hypothesis
at&t
capable
amnesia
services
renormalization
influence
redistribution
arpa
arma
armstrong
army
ordinate
arms
yoav
arti
forward
4,000
chaining
two-fold
fixed-size
achievable
hirsch
popov
cocktail
bellcore
watching
peaked
yoon
sector
o'leary
biasing
letter
monaco
hubbard
york
mally
anatomical
veridical
indicators
diminishes
diminished
malik
lyapunov
necessitates
males
maler
98.3
98.4
98.5
98.6
ph.d
auto
lauritzen
settle
varia
bernard
multi-chip
decreased
decreases
fitted
microstructure
non-homogeneous
conscious
professor
fractions
rightmost
botelho
profile
reactor
condensation
aver
hierarchically
inked
platform
transconductance
penalized
penalizes
module
modulo
translationally
creasing
renders
correlates
correlated
peak
gains
neurophysiology
99.5
critics
athe
ates
makes
peters
gaits
absolutely
atom
resembles
treisman
blackburn
intrusions
resembled
curried
high-contrast
peri
perf
buffering
intersection
afferent
intersecting
attacked
unary
johnstone
baseband
peng
auer
disagree
klein
reviewed
ernst
bell-shaped
kumar
default
pairing
asset
statist
promoter
axes
stating
station
assad
axis
autonomously
macgregor
mutations
hebrew
exceeds
characterized
clusters
disease
characterizes
anticipatory
flow
validated
decoded
excitability
biases
charles
worked
moscow
parthasarathy
decoder
biased
flux
filling-in
dependencies
pereira
contingencies
flip
outperformed
agnostic
ying
surrounds
foreground
debris
minneapolis
german
propositional
concert
first-order
concern
selections
polar
aston
replacement
release
concept
unnikrishnan
deflection
poles
admission
disturbance
worlds
fmri
arriving
questionable
assoc
associates
irregular
expanding
neocortex
aviv
resetting
damasio
acoustical
segregation
three-layer
planar
planck
strongly
uniqueness
perspective
planes
mosfet
leech
amplify
tapered
force
required
requires
membranes
multinomial
4-dimensional
moore
goudreau
modularity
plants
topology
specular
propositions
children
reference
electronics
obstacles
assignments
situations
stronger
picture
moody
sabes
indistinguishable
kinases
fixed-point
adaptively
repeating
two-stage
exploring
integrating
sperling
sensation
integration
fpga
margins
month
additional
two-state
achieves
unexplained
monte
achieved
garrett
monro
paragraphs
choice
owls
fowl
bitmap
forty
harmonization
fork
form
fort
laminar
money
fore
ford
asymptotically
owen
point
foot
fool
initialisation
integrative
font
food
forms
folk
fold
axon
shortcomings
kramer
demanded
prospects
moves
consumer
linking
gabor
putative
frozen
proofs
accelerator
moved
satyanarayana
movie
enhancement
univariate
sahani
ganglia
egham
year
maass
annular
mouth
regulate
valid
mouse
concave
performances
unaltered
conclusion
escape
attitude
starting
segregated
successfully
realizable
accelerated
devries
bistable
skeleton
oracle
enlarge
freq
free
fred
time-independent
geiger
editor
scenario
instrumental
annulus
manually
lower-level
frey
vladimir
duality
unexpected
edited
analytically
differ
frog
found
saito
harrison
wheel
motor
dorsal
prompt
reposing
interneurons
inves
muscular
skills
crease
create
denoising
moghaddam
delays
subpopulations
corrects
internally
sumption
parallels
hampshire
manfred
nonetheless
continue
blowfly
coupling
fovea
homing
aggregated
stinchcombe
inducing
distinctly
motif
consist
sutton
generations
overestimate
examples
decentralized
classically
mcclure
select
lifting
completeness
percentage
erwin
improvements
bytes
fairly
inset
ghosts
decouple
mosaic
mossy
adopting
achieving
leave
intra
intro
seldom
reward
learn
accuracies
remember
macro
ismail
reality
biting
thinking
realism
pression
mosis
realize
credit
liquid
throwing
whitehead
skeletal
matthew
elastic
multi-unit
leads
co-ordinates
portable
attaining
shorthand
inter
intel
labeled
sheffield
leaky
morph
triples
feed-forward
degenerate
hyperpolarization
rejection
globally
airborne
reached
universally
reaches
accessed
accesses
self-learning
filters
thought
hmms
hofmann
aimed
hippocampus
ellipse
k-means
prcs
mitchison
prey
pres
prep
advocate
pred
pref
machinery
rates
rated
lateral
prin
dominance
additive
polarity
triads
rectifying
2-step
submodule
lehmann
rangarajan
prof
prog
proj
prob
accelerating
proc
prop
acceleration
ultimately
addition
classifications
comments
hippocampal
deliver
constrains
constraint
neighboring
shunting
trials
offering
episodes
guide
homogeneous
puter
episodic
high-quality
cooperate
severe
tight
considers
researcher
conveniently
tiger
sliding
subtasks
noteworthy
rejecting
converging
hemispheres
mediates
efron
mediated
ascending
coleman
broadcast
reflections
isolate
establishing
compensate
facilitated
gallery
maximal
distortions
facilitates
buffered
practically
pleasure
electrons
modify
sharpening
moderately
churcher
dilation
exerts
methodologies
extrastriate
lighting
siggraph
electrode
initially
uncertainty
tricks
bypass
involvement
delete
notions
acceptance
subthreshold
characterised
detected
mechanisms
assessing
schwarze
semi-supervised
player
farber
played
maximum
expects
schwartz
fogel
matsuoka
detector
vague
malignant
puff
salamander
rapid
yang
yann
pure
yale
philadelphia
affects
pull
low-order
poorly
inspection
bristol
pump
counting
inspecting
decoders
implement
yair
thalamocortical
monotone
lyngby
magnus
puts
creatures
push
cottrell
feigenbaum
motors
couplings
poorer
guarantee
dowling
guess
smearing
capital
retained
locus
offsets
peripherals
silence
formidable
damage
drastic
ferromagnetic
self-organize
recomputed
feature
amplifiers
duces
cummings
purdue
recalling
plasma
symmetries
fonts
cells
transistors
pauses
blindness
ticks
latency
safely
discipline
centralized
unseen
lightness
procedures
statement
inserts
kawamoto
inverting
handle
tipping
determines
defined
instinct
defines
invariants
discard
canceling
midline
competitor
reports
receivers
interconnection
appreciable
interconnecting
determined
o'keefe
carnegie
convergent
computation
assisted
effective
purely
decimation
self-organizing
pertain
restarting
safety
tical
horn
dorothy
host
insightful
houk
rault
hour
hong
hood
textbook
